!!!COM: Haydn, Franz Joseph
!!!OPR: Symphony in G Major
!!!OTL: Affettuoso 
!!!OMV: 2
!!!SCT: H I:94
!!!SCA: Thematisch-bibliographisches Werkevererzeichnis (A. van Hoboken)
!!!YOR: Dover Edition
!!!EED: Frances Bennion
!!!ENC: Frances Bennion
!!!CDT: 1732/3/31/-1809/5/31/
!!!OCY: Österreich
!!!YEC: Copyright (c) 1994, 2000 Center for Computer Assisted Research in the Humanities
!!!YEM: Rights to all derivative editions reserved.
!!!YEM: Refer to licensing agreement for further details.
!!!YEN: United States of America
**kern	**kern	**kern	**kern	**kern	**kern	**kern	**kern	**kern	**kern	**kern	**kern	**kern	**kern	**kern	**kern
*k[]	*k[]	*k[]	*k[]	*k[]	*k[]	*k[]	*k[]	*k[]	*k[]	*k[]	*k[]	*k[]	*k[]	*k[]	*k[]
*C:	*C:	*C:	*C:	*C:	*C:	*C:	*C:	*C:	*C:	*C:	*C:	*C:	*C:	*C:	*C:
*clefF	*clefF	*clefF4	*clefF	*clefF	*clefC3	*clefF4	*clefF4	*clefF	*clefF	*clefF	*clefF4	*clefF4	*clefF	*clefF	*clefF
*M2/4	*M2/4	*M2/4	*M2/4	*M2/4	*M2/4	*M2/4	*M2/4	*M2/4	*M2/4	*M2/4	*M2/4	*M2/4	*M2/4	*M2/4	*M2/4
*tb96	*tb96	*tb96	*tb96	*tb96	*tb96	*tb96	*tb96	*tb96	*tb96	*tb96	*tb96	*tb96	*tb96	*tb96	*tb96
=1	=1	=1	=1	=1	=1	=1	=1	=1	=1	=1	=1	=1	=1	=1	=1
2r	2r	2r	8c	8c	4c	4C	4C	2r	2r	2r	2r	2r	2r	2r	2r
.	.	.	8c	8c	.	.	.	.	.	.	.	.	.	.	.
.	.	.	8e	8e	4r	4r	4r	.	.	.	.	.	.	.	.
.	.	.	8e	8e	.	.	.	.	.	.	.	.	.	.	.
=2	=2	=2	=2	=2	=2	=2	=2	=2	=2	=2	=2	=2	=2	=2	=2
2r	2r	2r	8g	8g	4c	4C	4C	2r	2r	2r	2r	2r	2r	2r	2r
.	.	.	8g	8g	.	.	.	.	.	.	.	.	.	.	.
.	.	.	4e	4e	4r	4r	4r	.	.	.	.	.	.	.	.
=3	=3	=3	=3	=3	=3	=3	=3	=3	=3	=3	=3	=3	=3	=3	=3
2r	2r	2r	8f	8f	4F	4FF	4FF	2r	2r	2r	2r	2r	2r	2r	2r
.	.	.	8f	8f	.	.	.	.	.	.	.	.	.	.	.
.	.	.	8d	8d	4r	4r	4r	.	.	.	.	.	.	.	.
.	.	.	8d	8d	.	.	.	.	.	.	.	.	.	.	.
=4	=4	=4	=4	=4	=4	=4	=4	=4	=4	=4	=4	=4	=4	=4	=4
2r	2r	2r	8B	8B	4G	4GG	4GG	2r	2r	2r	2r	2r	2r	2r	2r
.	.	.	8B	8B	.	.	.	.	.	.	.	.	.	.	.
.	.	.	4G	4G	4r	4r	4r	.	.	.	.	.	.	.	.
=5	=5	=5	=5	=5	=5	=5	=5	=5	=5	=5	=5	=5	=5	=5	=5
2r	2r	2r	8c	8c	4C	4CC	4CC	2r	2r	2r	2r	2r	2r	2r	2r
.	.	.	8c	8c	.	.	.	.	.	.	.	.	.	.	.
.	.	.	8e	8e	4r	4r	4r	.	.	.	.	.	.	.	.
.	.	.	8e	8e	.	.	.	.	.	.	.	.	.	.	.
=6	=6	=6	=6	=6	=6	=6	=6	=6	=6	=6	=6	=6	=6	=6	=6
2r	2r	2r	8g	8g	4c	4C	4C	2r	2r	2r	2r	2r	2r	2r	2r
.	.	.	8g	8g	.	.	.	.	.	.	.	.	.	.	.
.	.	.	4e	4e	4r	4r	4r	.	.	.	.	.	.	.	.
=7	=7	=7	=7	=7	=7	=7	=7	=7	=7	=7	=7	=7	=7	=7	=7
2r	2r	2r	8cc	8cc	8A	8AA	8AA	2r	2r	2r	2r	2r	2r	2r	2r
.	.	.	8cc	8cc	8r	8r	8r	.	.	.	.	.	.	.	.
.	.	.	8f#	8f#	8d	8D	8D	.	.	.	.	.	.	.	.
.	.	.	8f#	8f#	8r	8r	8r	.	.	.	.	.	.	.	.
=8	=8	=8	=8	=8	=8	=8	=8	=8	=8	=8	=8	=8	=8	=8	=8
2r	2r	2r	4g	4g	4G	4GG	4GG	2r	2r	2r	2r	2r	2r	2r	2r
.	.	.	8G	8G	4r	4r	4r	.	.	.	.	.	.	.	.
.	.	.	8r	8r	.	.	.	.	.	.	.	.	.	.	.
=9	=9	=9	=9	=9	=9	=9	=9	=9	=9	=9	=9	=9	=9	=9	=9
2r	2r	2r	8c	4G 4e	4c	4C	4C	2r	2r	2r	2r	2r	2r	2r	2r
.	.	.	8c	.	.	.	.	.	.	.	.	.	.	.	.
.	.	.	8e	4r	4r	4r	4r	.	.	.	.	.	.	.	.
.	.	.	8e	.	.	.	.	.	.	.	.	.	.	.	.
=10	=10	=10	=10	=10	=10	=10	=10	=10	=10	=10	=10	=10	=10	=10	=10
2r	2r	2r	8g	4e 4G	4c	4C	4C	2r	2r	2r	2r	2r	2r	2r	2r
.	.	.	8g	.	.	.	.	.	.	.	.	.	.	.	.
.	.	.	4e	4r	4r	4r	4r	.	.	.	.	.	.	.	.
=11	=11	=11	=11	=11	=11	=11	=11	=11	=11	=11	=11	=11	=11	=11	=11
2r	2r	2r	8f	4f 4A	4F	4FF	4FF	2r	2r	2r	2r	2r	2r	2r	2r
.	.	.	8f	.	.	.	.	.	.	.	.	.	.	.	.
.	.	.	8d	4r	4r	4r	4r	.	.	.	.	.	.	.	.
.	.	.	8d	.	.	.	.	.	.	.	.	.	.	.	.
=12	=12	=12	=12	=12	=12	=12	=12	=12	=12	=12	=12	=12	=12	=12	=12
2r	2r	2r	8B	4B 4d	4G	4GG	4GG	2r	2r	2r	2r	2r	2r	2r	2r
.	.	.	8B	.	.	.	.	.	.	.	.	.	.	.	.
.	.	.	4G	4r	4r	4r	4r	.	.	.	.	.	.	.	.
=13	=13	=13	=13	=13	=13	=13	=13	=13	=13	=13	=13	=13	=13	=13	=13
2r	2r	2r	8c	4G 4e	4c	4C	4C	2r	2r	2r	2r	2r	2r	2r	2r
.	.	.	8c	.	.	.	.	.	.	.	.	.	.	.	.
.	.	.	8e	4r	4r	4r	4r	.	.	.	.	.	.	.	.
.	.	.	8e	.	.	.	.	.	.	.	.	.	.	.	.
=14	=14	=14	=14	=14	=14	=14	=14	=14	=14	=14	=14	=14	=14	=14	=14
2r	2r	2r	8g	4G 4e	4c	4C	4C	2r	2r	2r	2r	2r	2r	2r	2r
.	.	.	8g	.	.	.	.	.	.	.	.	.	.	.	.
.	.	.	4e	4r	4r	4r	4r	.	.	.	.	.	.	.	.
=15	=15	=15	=15	=15	=15	=15	=15	=15	=15	=15	=15	=15	=15	=15	=15
2r	2r	2r	8cc	4e 4A	8A	8AA	8AA	2r	2r	2r	2r	2r	2r	2r	2r
.	.	.	8cc	.	8r	8r	8r	.	.	.	.	.	.	.	.
.	.	.	8f#	4f# 4A	8d	8D	8D	.	.	.	.	.	.	.	.
.	.	.	8f#	.	8r	8r	8r	.	.	.	.	.	.	.	.
=16	=16	=16	=16	=16	=16	=16	=16	=16	=16	=16	=16	=16	=16	=16	=16
4r	4r	4r	8g	8g 8G	8G	8GG	8GG	4r	4r	4r	4r	4r	4r	4r	4r
.	.	.	8r	8r	8r	8r	8r	.	.	.	.	.	.	.	.
4gg	4g	4GG	4gg 4b 4d	4gg 4b 4d	4G	4GG	4GG	4gg	4gg	4g	4G	4G	4g	4G	4g
=17	=17	=17	=17	=17	=17	=17	=17	=17	=17	=17	=17	=17	=17	=17	=17
2r	2r	2r	8f	8d	4B	4BB	4BB	2r	2r	2r	2r	2r	2r	2r	2r
.	.	.	16G	16G	.	.	.	.	.	.	.	.	.	.	.
.	.	.	16r	16r	.	.	.	.	.	.	.	.	.	.	.
.	.	.	8e	8c	4c	4C	4C	.	.	.	.	.	.	.	.
.	.	.	16G	16G	.	.	.	.	.	.	.	.	.	.	.
.	.	.	16r	16r	.	.	.	.	.	.	.	.	.	.	.
=18	=18	=18	=18	=18	=18	=18	=18	=18	=18	=18	=18	=18	=18	=18	=18
2r	2r	2r	8d	8B	4G	8GG	8GG	2r	2r	2r	2r	2r	2r	2r	2r
.	.	.	8d	8B	.	8GG	8GG	.	.	.	.	.	.	.	.
.	.	.	16d	16B	4r	8GG	8GG	.	.	.	.	.	.	.	.
.	.	.	16e	16c	.	.	.	.	.	.	.	.	.	.	.
.	.	.	16f	16d	.	8r	8r	.	.	.	.	.	.	.	.
.	.	.	16g	16e	.	.	.	.	.	.	.	.	.	.	.
=19	=19	=19	=19	=19	=19	=19	=19	=19	=19	=19	=19	=19	=19	=19	=19
2r	2r	2r	16a	16f	4r	4GG	4GG	2r	2r	2r	2r	2r	2r	2r	2r
.	.	.	16G	16G	.	.	.	.	.	.	.	.	.	.	.
.	.	.	16g	16e	.	.	.	.	.	.	.	.	.	.	.
.	.	.	16G	16G	.	.	.	.	.	.	.	.	.	.	.
.	.	.	16f	16d	8B	4r	4r	.	.	.	.	.	.	.	.
.	.	.	16G	16G	.	.	.	.	.	.	.	.	.	.	.
.	.	.	16e	16c	8c	.	.	.	.	.	.	.	.	.	.
.	.	.	16G	16G	.	.	.	.	.	.	.	.	.	.	.
=20	=20	=20	=20	=20	=20	=20	=20	=20	=20	=20	=20	=20	=20	=20	=20
2r	2r	2r	8d	8B	8G	8GG	8GG	2r	2r	2r	2r	2r	2r	2r	2r
.	.	.	8d	8B	8G	8GG	8GG	.	.	.	.	.	.	.	.
.	.	.	8.d	4B	8G	8GG	8GG	.	.	.	.	.	.	.	.
.	.	.	.	.	8r	8r	8r	.	.	.	.	.	.	.	.
.	.	.	16d#	.	.	.	.	.	.	.	.	.	.	.	.
=21	=21	=21	=21	=21	=21	=21	=21	=21	=21	=21	=21	=21	=21	=21	=21
2r	2r	2r	8e	8c	8e	8c	8c	2r	2r	2r	2r	2r	2r	2r	2r
.	.	.	8e	8c	8e	8c	8c	.	.	.	.	.	.	.	.
.	.	.	8g	8e	8c	8G	8G	.	.	.	.	.	.	.	.
.	.	.	8g	8e	8c	8G	8G	.	.	.	.	.	.	.	.
=22	=22	=22	=22	=22	=22	=22	=22	=22	=22	=22	=22	=22	=22	=22	=22
2r	2r	2r	8cc	8g	8G	8E	8E	2r	2r	2r	2r	2r	2r	2r	2r
.	.	.	8cc	8g	8G	8E	8E	.	.	.	.	.	.	.	.
.	.	.	4ee	4cc	4E	4C	4C	.	.	.	.	.	.	.	.
=23	=23	=23	=23	=23	=23	=23	=23	=23	=23	=23	=23	=23	=23	=23	=23
2r	2r	2r	8dd	8a	8F	8F	8F	2r	2r	2r	2r	2r	2r	2r	2r
.	.	.	8dd	8f	8F	8F	8F	.	.	.	.	.	.	.	.
.	.	.	8b	8d	8G	8G	8G	.	.	.	.	.	.	.	.
.	.	.	16a	16c	8G	8G	8G	.	.	.	.	.	.	.	.
.	.	.	16b	16d	.	.	.	.	.	.	.	.	.	.	.
=24	=24	=24	=24	=24	=24	=24	=24	=24	=24	=24	=24	=24	=24	=24	=24
2r	2r	2r	8cc	8e	8C	8C	8C	2r	2r	2r	2r	2r	2r	2r	2r
.	.	.	8cc	8e	8C	8C	8C	.	.	.	.	.	.	.	.
.	.	.	8cc	8e	8C	8C	8C	.	.	.	.	.	.	.	.
.	.	.	8r	8r	8r	8r	8r	.	.	.	.	.	.	.	.
=25	=25	=25	=25	=25	=25	=25	=25	=25	=25	=25	=25	=25	=25	=25	=25
4ff	2r	2r	8f	8d	4B	4BB	4BB	2r	4dd	2r	2r	2r	[2g	[2G	2r
.	.	.	16G	16G	.	.	.	.	.	.	.	.	.	.	.
.	.	.	16r	16r	.	.	.	.	.	.	.	.	.	.	.
4ee	.	.	8e	8c	4c	4C	4C	.	4cc	.	.	.	.	.	.
.	.	.	16G	16G	.	.	.	.	.	.	.	.	.	.	.
.	.	.	16r	16r	.	.	.	.	.	.	.	.	.	.	.
=26	=26	=26	=26	=26	=26	=26	=26	=26	=26	=26	=26	=26	=26	=26	=26
8dd	2r	2r	8d	8B	8G	4GG	4GG	2r	8b	2r	2r	2r	2g_	2G_	2r
8dd	.	.	8d	8B	8G	.	.	.	8b	.	.	.	.	.	.
16dd	.	.	16d	16B	8G	4r	4r	.	16b	.	.	.	.	.	.
16ee	.	.	16e	16c	.	.	.	.	16cc	.	.	.	.	.	.
16ff	.	.	16f	16d	8r	.	.	.	16dd	.	.	.	.	.	.
16gg	.	.	16g	16e	.	.	.	.	16ee	.	.	.	.	.	.
=27	=27	=27	=27	=27	=27	=27	=27	=27	=27	=27	=27	=27	=27	=27	=27
8aa	2r	2r	16a	16f	4r	4GG	4GG	2r	8ff	2r	2r	2r	2g_	2G_	2r
.	.	.	16G	16G	.	.	.	.	.	.	.	.	.	.	.
8gg	.	.	16g	16e	.	.	.	.	8ee	.	.	.	.	.	.
.	.	.	16G	16G	.	.	.	.	.	.	.	.	.	.	.
8ff	.	.	16f	16d	8B	4r	4r	.	8dd	.	.	.	.	.	.
.	.	.	16G	16G	.	.	.	.	.	.	.	.	.	.	.
8ee	.	.	16e	16c	8c	.	.	.	8cc	.	.	.	.	.	.
.	.	.	16G	16G	.	.	.	.	.	.	.	.	.	.	.
=28	=28	=28	=28	=28	=28	=28	=28	=28	=28	=28	=28	=28	=28	=28	=28
8dd	2r	2r	8d	8B	8G	4GG	4GG	2r	8g	2r	2r	2r	2g]	2G]	2r
8dd	.	.	8d	8B	8G	.	.	.	8g	.	.	.	.	.	.
8.dd	.	.	8.d	4B	8G	4r	4r	.	8g	.	.	.	.	.	.
.	.	.	.	.	8r	.	.	.	8r	.	.	.	.	.	.
16dd#	.	.	16d#	.	.	.	.	.	.	.	.	.	.	.	.
=29	=29	=29	=29	=29	=29	=29	=29	=29	=29	=29	=29	=29	=29	=29	=29
8ee	2r	2r	8e	8c	8e	8c	8c	2r	8cc	2r	2r	2r	8cc	8c	2r
8ee	.	.	8e	8c	8e	8c	8c	.	8cc	.	.	.	8cc	8c	.
8gg	.	.	8g	8e	8c	8G	8G	.	8ee	.	.	.	8cc	8c	.
8gg	.	.	8g	8e	8c	8G	8G	.	8ee	.	.	.	8cc	8c	.
=30	=30	=30	=30	=30	=30	=30	=30	=30	=30	=30	=30	=30	=30	=30	=30
8ccc	2r	2r	8cc	8g	8G	8E	8E	2r	8gg	2r	2r	2r	8cc	8c	2r
8ccc	.	.	8cc	8g	8G	8E	8E	.	8gg	.	.	.	8cc	8c	.
4eee	.	.	4ee	4cc	4E	4C	4C	.	4ccc	.	.	.	8cc	8c	.
.	.	.	.	.	.	.	.	.	.	.	.	.	8r	8r	.
=31	=31	=31	=31	=31	=31	=31	=31	=31	=31	=31	=31	=31	=31	=31	=31
8ddd	2r	2r	8dd	8a	8F	8F	8F	2r	8aa	2r	2r	2r	2r	2r	2r
8ddd	.	.	8dd	8f	8F	8F	8F	.	8ff	.	.	.	.	.	.
8bb	.	.	8b	8d	8G	8G	8G	.	8dd	.	.	.	.	.	.
16aa	.	.	16a	16c	8G	8G	8G	.	16cc	.	.	.	.	.	.
16bb	.	.	16b	16d	.	.	.	.	16dd	.	.	.	.	.	.
=32	=32	=32	=32	=32	=32	=32	=32	=32	=32	=32	=32	=32	=32	=32	=32
8ccc	2r	2r	8cc	8e	8C	8C	8C	2r	8ee	2r	2r	2r	2r	2r	2r
8ccc	.	.	8cc	8e	8C	8C	8C	.	8ee	.	.	.	.	.	.
8ccc	.	.	8cc	8e	8C	8C	8C	.	8ee	.	.	.	.	.	.
8r	.	.	8r	8r	8r	8r	8r	.	8r	.	.	.	.	.	.
=33	=33	=33	=33	=33	=33	=33	=33	=33	=33	=33	=33	=33	=33	=33	=33
4ccc	4e	4C	4c	8c	8E	4C	4C	4ccc	4cc	4cc	4C	4C	4cc	4e	4cc
.	.	.	.	8c	8E	.	.	.	.	.	.	.	.	.	.
4r	4r	4r	4r	8e	8c	4r	4r	4r	4r	4r	4r	4r	4r	4r	4r
.	.	.	.	8e	8c	.	.	.	.	.	.	.	.	.	.
=34	=34	=34	=34	=34	=34	=34	=34	=34	=34	=34	=34	=34	=34	=34	=34
2r	2r	2r	6..r	8g	8e	4C	4C	2r	2r	2r	2r	2r	2r	2r	2r
.	.	.	.	8g	8e	.	.	.	.	.	.	.	.	.	.
.	.	.	.	4e	4c	4r	4r	.	.	.	.	.	.	.	.
.	.	.	48r	.	.	.	.	.	.	.	.	.	.	.	.
.	.	.	16gg	.	.	.	.	.	.	.	.	.	.	.	.
.	.	.	16ccc	.	.	.	.	.	.	.	.	.	.	.	.
.	.	.	16bb	.	.	.	.	.	.	.	.	.	.	.	.
=35	=35	=35	=35	=35	=35	=35	=35	=35	=35	=35	=35	=35	=35	=35	=35
2r	2r	2r	16bb	8f	8f	4FF	4FF	2r	2r	2r	2r	2r	2r	2r	2r
.	.	.	16aa	.	.	.	.	.	.	.	.	.	.	.	.
.	.	.	16aa	8f	8f	.	.	.	.	.	.	.	.	.	.
.	.	.	16gg	.	.	.	.	.	.	.	.	.	.	.	.
.	.	.	16gg	8d	8d	4r	4r	.	.	.	.	.	.	.	.
.	.	.	16ff	.	.	.	.	.	.	.	.	.	.	.	.
.	.	.	16ff	8d	8d	.	.	.	.	.	.	.	.	.	.
.	.	.	16ee	.	.	.	.	.	.	.	.	.	.	.	.
=36	=36	=36	=36	=36	=36	=36	=36	=36	=36	=36	=36	=36	=36	=36	=36
2r	2r	2r	16ee	8B	8B	4GG	4GG	2r	2r	2r	2r	2r	2r	2r	2r
.	.	.	16dd	.	.	.	.	.	.	.	.	.	.	.	.
.	.	.	16dd	8B	8B	.	.	.	.	.	.	.	.	.	.
.	.	.	16cc	.	.	.	.	.	.	.	.	.	.	.	.
.	.	.	16b	4G	4G	4r	4r	.	.	.	.	.	.	.	.
.	.	.	16aa	.	.	.	.	.	.	.	.	.	.	.	.
.	.	.	16gg	.	.	.	.	.	.	.	.	.	.	.	.
.	.	.	16ff	.	.	.	.	.	.	.	.	.	.	.	.
=37	=37	=37	=37	=37	=37	=37	=37	=37	=37	=37	=37	=37	=37	=37	=37
2r	2r	2r	8ee	8c	8E	4C	4C	2r	2r	2r	2r	2r	2r	2r	2r
.	.	.	4.r	8c	8E	.	.	.	.	.	.	.	.	.	.
.	.	.	.	8e	8c	4r	4r	.	.	.	.	.	.	.	.
.	.	.	.	8e	8c	.	.	.	.	.	.	.	.	.	.
=38	=38	=38	=38	=38	=38	=38	=38	=38	=38	=38	=38	=38	=38	=38	=38
6..r	2r	2r	6..r	8g	8e	4C	4C	2r	2r	2r	2r	2r	2r	2r	2r
.	.	.	.	8g	8e	.	.	.	.	.	.	.	.	.	.
.	.	.	.	4e	4c	4r	4r	.	.	.	.	.	.	.	.
48r	.	.	48r	.	.	.	.	.	.	.	.	.	.	.	.
16gg	.	.	16g	.	.	.	.	.	.	.	.	.	.	.	.
16ccc	.	.	16cc	.	.	.	.	.	.	.	.	.	.	.	.
16eee	.	.	16ee	.	.	.	.	.	.	.	.	.	.	.	.
=39	=39	=39	=39	=39	=39	=39	=39	=39	=39	=39	=39	=39	=39	=39	=39
16eee	2r	2r	16ee	8cc	8A	8AA	8AA	2r	2r	2r	2r	2r	2r	2r	2r
16ddd	.	.	16dd	.	.	.	.	.	.	.	.	.	.	.	.
16ddd	.	.	16dd	8cc	8A	8r	8r	.	.	.	.	.	.	.	.
16ccc	.	.	16cc	.	.	.	.	.	.	.	.	.	.	.	.
16ccc	.	.	16cc	8f#	8d	8D	8D	.	.	.	.	.	.	.	.
16bb	.	.	16b	.	.	.	.	.	.	.	.	.	.	.	.
16bb	.	.	16b	8f#	8d	8r	8r	.	.	.	.	.	.	.	.
16aa	.	.	16a	.	.	.	.	.	.	.	.	.	.	.	.
=40	=40	=40	=40	=40	=40	=40	=40	=40	=40	=40	=40	=40	=40	=40	=40
16ccc	2r	2r	16cc	4g	4G	4GG	4GG	2r	2r	2r	2r	2r	2r	2r	2r
16bb	.	.	16b	.	.	.	.	.	.	.	.	.	.	.	.
16ddd	.	.	16dd	.	.	.	.	.	.	.	.	.	.	.	.
16bb	.	.	16b	.	.	.	.	.	.	.	.	.	.	.	.
8gg	.	.	8g	8G	4r	4r	4r	.	.	.	.	.	.	.	.
8r	.	.	8r	8r	.	.	.	.	.	.	.	.	.	.	.
=41	=41	=41	=41	=41	=41	=41	=41	=41	=41	=41	=41	=41	=41	=41	=41
2r	2r	2r	6..r	8f	8d	4BB	4BB	2r	2r	2r	2r	2r	2r	2r	2r
.	.	.	.	16G	16G	.	.	.	.	.	.	.	.	.	.
.	.	.	.	16r	16r	.	.	.	.	.	.	.	.	.	.
.	.	.	.	8e	8c	4C	4C	.	.	.	.	.	.	.	.
.	.	.	48r	.	.	.	.	.	.	.	.	.	.	.	.
.	.	.	16g	.	.	.	.	.	.	.	.	.	.	.	.
.	.	.	16cc	16G	16G	.	.	.	.	.	.	.	.	.	.
.	.	.	16ee	16r	16r	.	.	.	.	.	.	.	.	.	.
=42	=42	=42	=42	=42	=42	=42	=42	=42	=42	=42	=42	=42	=42	=42	=42
2r	2r	2r	16gg	8d	8B	4GG	4GG	2r	2r	2r	2r	2r	2r	2r	2r
.	.	.	16ff#	.	.	.	.	.	.	.	.	.	.	.	.
.	.	.	16gg	8d	8B	.	.	.	.	.	.	.	.	.	.
.	.	.	16ff#	.	.	.	.	.	.	.	.	.	.	.	.
.	.	.	16aa	16d	16B	4r	4r	.	.	.	.	.	.	.	.
.	.	.	16gg	16e	16c	.	.	.	.	.	.	.	.	.	.
.	.	.	16ff	16f	16d	.	.	.	.	.	.	.	.	.	.
.	.	.	16ee	16g	16e	.	.	.	.	.	.	.	.	.	.
=43	=43	=43	=43	=43	=43	=43	=43	=43	=43	=43	=43	=43	=43	=43	=43
2r	2r	2r	8dd	16a	16f	4GG	4GG	2r	2r	2r	2r	2r	2r	2r	2r
.	.	.	.	16G	16G	.	.	.	.	.	.	.	.	.	.
.	.	.	8cc	16g	16e	.	.	.	.	.	.	.	.	.	.
.	.	.	.	16G	16G	.	.	.	.	.	.	.	.	.	.
.	.	.	8b	16f	16d	4r	4r	.	.	.	.	.	.	.	.
.	.	.	.	16G	16G	.	.	.	.	.	.	.	.	.	.
.	.	.	8cc	16e	16c	.	.	.	.	.	.	.	.	.	.
.	.	.	.	16G	16G	.	.	.	.	.	.	.	.	.	.
=44	=44	=44	=44	=44	=44	=44	=44	=44	=44	=44	=44	=44	=44	=44	=44
2r	2r	2r	16gg	8d	8B	4GG	4GG	2r	2r	2r	2r	2r	2r	2r	2r
.	.	.	16ff#	.	.	.	.	.	.	.	.	.	.	.	.
.	.	.	16gg	8d	8B	.	.	.	.	.	.	.	.	.	.
.	.	.	16ff#	.	.	.	.	.	.	.	.	.	.	.	.
.	.	.	16gg	8.d	4B	4r	4r	.	.	.	.	.	.	.	.
.	.	.	16ff	.	.	.	.	.	.	.	.	.	.	.	.
.	.	.	16ee	.	.	.	.	.	.	.	.	.	.	.	.
.	.	.	16dd#	16d#	.	.	.	.	.	.	.	.	.	.	.
=45	=45	=45	=45	=45	=45	=45	=45	=45	=45	=45	=45	=45	=45	=45	=45
2r	2r	2r	16ee	8e	8c	4C	4C	2r	2r	2r	2r	2r	2r	2r	2r
.	.	.	16gg	.	.	.	.	.	.	.	.	.	.	.	.
.	.	.	16ccc	8e	8c	.	.	.	.	.	.	.	.	.	.
.	.	.	16bb	.	.	.	.	.	.	.	.	.	.	.	.
.	.	.	16ccc	8g	8e	4r	4r	.	.	.	.	.	.	.	.
.	.	.	16gg	.	.	.	.	.	.	.	.	.	.	.	.
.	.	.	16ccc	8g	8e	.	.	.	.	.	.	.	.	.	.
.	.	.	16bb	.	.	.	.	.	.	.	.	.	.	.	.
=46	=46	=46	=46	=46	=46	=46	=46	=46	=46	=46	=46	=46	=46	=46	=46
2r	2r	2r	16ccc	8cc	8g	4C	4C	2r	2r	2r	2r	2r	2r	2r	2r
.	.	.	16gg	.	.	.	.	.	.	.	.	.	.	.	.
.	.	.	16eee	8cc	8g	.	.	.	.	.	.	.	.	.	.
.	.	.	16ddd	.	.	.	.	.	.	.	.	.	.	.	.
.	.	.	16ccc	4ee	4cc	4r	4r	.	.	.	.	.	.	.	.
.	.	.	16bb	.	.	.	.	.	.	.	.	.	.	.	.
.	.	.	16aa	.	.	.	.	.	.	.	.	.	.	.	.
.	.	.	16gg	.	.	.	.	.	.	.	.	.	.	.	.
=47	=47	=47	=47	=47	=47	=47	=47	=47	=47	=47	=47	=47	=47	=47	=47
2r	2r	2r	8ff	8dd	8a	8F	8F	2r	2r	2r	2r	2r	2r	2r	2r
.	.	.	8ff	8dd	8a	8r	8r	.	.	.	.	.	.	.	.
.	.	.	8dd	8b	8f	8G	8G	.	.	.	.	.	.	.	.
.	.	.	16cc	16a	8f	8r	8r	.	.	.	.	.	.	.	.
.	.	.	16dd	16b	.	.	.	.	.	.	.	.	.	.	.
=48	=48	=48	=48	=48	=48	=48	=48	=48	=48	=48	=48	=48	=48	=48	=48
2r	2r	2r	8cc	8cc	8e	8C	8C	2r	2r	2r	2r	2r	2r	2r	2r
.	.	.	8cc	8cc	8e	8C	8C	.	.	.	.	.	.	.	.
.	.	.	8cc	8cc	8e	8C	8C	.	.	.	.	.	.	.	.
.	.	.	8r	8r	8r	8r	8r	.	.	.	.	.	.	.	.
=49	=49	=49	=49	=49	=49	=49	=49	=49	=49	=49	=49	=49	=49	=49	=49
8cc	2r	2r	8c	8c	8c	8C	8C	8cc	8cc	8cc	8C	8C	2r	2r	2r
8cc	.	.	8c	8c	8c	8C	8C	8cc	8cc	8cc	8C	8C	.	.	.
8ee-	.	.	8e-	8e-	8e-	8E-	8E-	8ee-	8ee-	8ee-	8E-	8E-	.	.	.
8ee-	.	.	8e-	8e-	8e-	8E-	8E-	8ee-	8ee-	8ee-	8E-	8E-	.	.	.
=50	=50	=50	=50	=50	=50	=50	=50	=50	=50	=50	=50	=50	=50	=50	=50
8gg	2r	2r	8g	8g	8g	8G	8G	8gg	8gg	8gg	8G	8G	2r	2r	2r
8gg	.	.	8g	8g	8g	8G	8G	8gg	8gg	8gg	8G	8G	.	.	.
4ee-	.	.	4e-	4e-	4e-	4E-	4E-	4ee-	4ee-	4ee-	4E-	4E-	.	.	.
=51	=51	=51	=51	=51	=51	=51	=51	=51	=51	=51	=51	=51	=51	=51	=51
8ff	2r	2r	8f	8f	8f	8F	8F	8ff	8ff	8ff	8F	8F	2r	2r	2r
8ff	.	.	8f	8f	8f	8F	8F	8ff	8ff	8ff	8F	8F	.	.	.
8dd	.	.	8d	8d	8d	8D	8D	8dd	8dd	8dd	8D	8D	.	.	.
8dd	.	.	8d	8d	8d	8D	8D	8dd	8dd	8dd	8D	8D	.	.	.
=52	=52	=52	=52	=52	=52	=52	=52	=52	=52	=52	=52	=52	=52	=52	=52
8b	2r	2r	8B	8B	8B	8BB	8BB	8b	8b	8b	8BB	8BB	2r	2r	2r
8b	.	.	8B	8B	8B	8BB	8BB	8b	8b	8b	8BB	8BB	.	.	.
4g	.	.	4G	4G	4G	4GG	4GG	4g	4g	4g	4GG	4GG	.	.	.
=53	=53	=53	=53	=53	=53	=53	=53	=53	=53	=53	=53	=53	=53	=53	=53
2r	2r	2r	8a-	16c	16A-	4AA-	4AA-	2r	2r	2r	4AA-	4AA-	2r	2r	2r
.	.	.	.	16e-	16c	.	.	.	.	.	.	.	.	.	.
.	.	.	8a-	16c	16A-	.	.	.	.	.	.	.	.	.	.
.	.	.	.	16e-	16c	.	.	.	.	.	.	.	.	.	.
.	.	.	8cc	16c	16A-	4r	4r	.	.	.	4r	4r	.	.	.
.	.	.	.	16e-	16c	.	.	.	.	.	.	.	.	.	.
.	.	.	8cc	16c	16A-	.	.	.	.	.	.	.	.	.	.
.	.	.	.	16e-	16c	.	.	.	.	.	.	.	.	.	.
=54	=54	=54	=54	=54	=54	=54	=54	=54	=54	=54	=54	=54	=54	=54	=54
2r	2r	2r	8ee-	16c	16A-	4AA-	4AA-	2r	2r	2r	4AA-	4AA-	2r	2r	2r
.	.	.	.	16e-	16c	.	.	.	.	.	.	.	.	.	.
.	.	.	8ee-	16c	16A-	.	.	.	.	.	.	.	.	.	.
.	.	.	.	16e-	16c	.	.	.	.	.	.	.	.	.	.
.	.	.	4aa-	16c	16A-	4r	4r	.	.	.	4r	4r	.	.	.
.	.	.	.	16e-	16c	.	.	.	.	.	.	.	.	.	.
.	.	.	.	16c	16A-	.	.	.	.	.	.	.	.	.	.
.	.	.	.	16e-	16c	.	.	.	.	.	.	.	.	.	.
=55	=55	=55	=55	=55	=55	=55	=55	=55	=55	=55	=55	=55	=55	=55	=55
2r	2r	2r	8dd	8a-	8F	4BB-	4BB-	2r	2r	2r	4BB-	4BB-	2r	2r	2r
.	.	.	8dd	8a-	8F	.	.	.	.	.	.	.	.	.	.
.	.	.	16dd	16a-	16F	4r	4r	.	.	.	4r	4r	.	.	.
.	.	.	16ee-	16g	16E-	.	.	.	.	.	.	.	.	.	.
.	.	.	16ff	16f	16D	.	.	.	.	.	.	.	.	.	.
.	.	.	16dd	16a-	16F	.	.	.	.	.	.	.	.	.	.
=56	=56	=56	=56	=56	=56	=56	=56	=56	=56	=56	=56	=56	=56	=56	=56
2r	2r	2r	8ee-	8g	8E-	4E-	4E-	2r	2r	2r	4E-	4E-	2r	2r	2r
.	.	.	8ee-	8g	8E-	.	.	.	.	.	.	.	.	.	.
.	.	.	8ee-	8g	8E-	4r	4r	.	.	.	4r	4r	.	.	.
.	.	.	8r	8r	8r	.	.	.	.	.	.	.	.	.	.
=57	=57	=57	=57	=57	=57	=57	=57	=57	=57	=57	=57	=57	=57	=57	=57
[2bb-	2r	2r	4e- 4G	16ee-	4e- 4G	8E-	8E-	[2bb-	2gg	2ee-	4EE-	4EE-	2r	2r	2r
.	.	.	.	32dd	.	.	.	.	.	.	.	.	.	.	.
.	.	.	.	32cc	.	.	.	.	.	.	.	.	.	.	.
.	.	.	.	32b-	.	8E-	8E-	.	.	.	.	.	.	.	.
.	.	.	.	32a-	.	.	.	.	.	.	.	.	.	.	.
.	.	.	.	32g	.	.	.	.	.	.	.	.	.	.	.
.	.	.	.	32f	.	.	.	.	.	.	.	.	.	.	.
.	.	.	4r	16e-	8B-	8G	8G	.	.	.	4r	4r	.	.	.
.	.	.	.	32ee-	.	.	.	.	.	.	.	.	.	.	.
.	.	.	.	32ff	.	.	.	.	.	.	.	.	.	.	.
.	.	.	.	16gg	8B-	8G	8G	.	.	.	.	.	.	.	.
.	.	.	.	16ee-	.	.	.	.	.	.	.	.	.	.	.
=58	=58	=58	=58	=58	=58	=58	=58	=58	=58	=58	=58	=58	=58	=58	=58
2bb-]	2r	2r	16bb-	4b-	8B-	4B-	4B-	2bb-]	2ff	2dd	8BB-	8BB-	2r	2r	2r
.	.	.	32aa	.	.	.	.	.	.	.	.	.	.	.	.
.	.	.	32gg	.	.	.	.	.	.	.	.	.	.	.	.
.	.	.	32ff	.	8B-	.	.	.	.	.	8BB-	8BB-	.	.	.
.	.	.	32ee-	.	.	.	.	.	.	.	.	.	.	.	.
.	.	.	32dd	.	.	.	.	.	.	.	.	.	.	.	.
.	.	.	32cc	.	.	.	.	.	.	.	.	.	.	.	.
.	.	.	16b-	4r	8d	4r	4r	.	.	.	8D	8D	.	.	.
.	.	.	32b-	.	.	.	.	.	.	.	.	.	.	.	.
.	.	.	32cc	.	.	.	.	.	.	.	.	.	.	.	.
.	.	.	16dd	.	8d	.	.	.	.	.	8D	8D	.	.	.
.	.	.	16b-	.	.	.	.	.	.	.	.	.	.	.	.
=59	=59	=59	=59	=59	=59	=59	=59	=59	=59	=59	=59	=59	=59	=59	=59
4aa-	2r	2r	4f	16ff	4f	8F	8F	4aa-	2aa-	2ff	4F	4F	2r	2r	2r
.	.	.	.	32ee-	.	.	.	.	.	.	.	.	.	.	.
.	.	.	.	32dd-	.	.	.	.	.	.	.	.	.	.	.
.	.	.	.	32cc	.	8F	8F	.	.	.	.	.	.	.	.
.	.	.	.	32b-	.	.	.	.	.	.	.	.	.	.	.
.	.	.	.	32a-	.	.	.	.	.	.	.	.	.	.	.
.	.	.	.	32g	.	.	.	.	.	.	.	.	.	.	.
4ccc	.	.	4r	16f	4r	8A-	8A-	4ccc	.	.	4r	4r	.	.	.
.	.	.	.	32ff	.	.	.	.	.	.	.	.	.	.	.
.	.	.	.	32gg	.	.	.	.	.	.	.	.	.	.	.
.	.	.	.	16aa-	.	8A-	8A-	.	.	.	.	.	.	.	.
.	.	.	.	16ff	.	.	.	.	.	.	.	.	.	.	.
=60	=60	=60	=60	=60	=60	=60	=60	=60	=60	=60	=60	=60	=60	=60	=60
2ccc	2r	2r	16ccc	4cc	8c	4c	4c	2ccc	2gg	2ee	8C	8C	2r	2r	2r
.	.	.	32bb-	.	.	.	.	.	.	.	.	.	.	.	.
.	.	.	32aa-	.	.	.	.	.	.	.	.	.	.	.	.
.	.	.	32gg	.	8c	.	.	.	.	.	8C	8C	.	.	.
.	.	.	32ff	.	.	.	.	.	.	.	.	.	.	.	.
.	.	.	32ee	.	.	.	.	.	.	.	.	.	.	.	.
.	.	.	32dd	.	.	.	.	.	.	.	.	.	.	.	.
.	.	.	16cc	4r	8e	8r	8r	.	.	.	8E	8E	.	.	.
.	.	.	32gg	.	.	.	.	.	.	.	.	.	.	.	.
.	.	.	32aa-	.	.	.	.	.	.	.	.	.	.	.	.
.	.	.	16bb-	.	8e	8E	8E	.	.	.	8E	8E	.	.	.
.	.	.	16gg	.	.	.	.	.	.	.	.	.	.	.	.
=61	=61	=61	=61	=61	=61	=61	=61	=61	=61	=61	=61	=61	=61	=61	=61
4ccc	2r	2r	16aa-	16aa-	8f	8F	8F	4ccc	4aa-	2cc	8F	8F	2r	2r	2r
.	.	.	32ff	32ff	.	.	.	.	.	.	.	.	.	.	.
.	.	.	32gg	32gg	.	.	.	.	.	.	.	.	.	.	.
.	.	.	16aa-	16aa-	4cc	8c	8c	.	.	.	8c	8c	.	.	.
.	.	.	16ff	16ff	.	.	.	.	.	.	.	.	.	.	.
4ee	.	.	16ee	16ee	.	8G	8G	4ee	4gg	.	8G	8G	.	.	.
.	.	.	32cc	32cc	.	.	.	.	.	.	.	.	.	.	.
.	.	.	32dd	32dd	.	.	.	.	.	.	.	.	.	.	.
.	.	.	16ee	16ee	[8cc	8c	8c	.	.	.	8c	8c	.	.	.
.	.	.	16cc	16cc	.	.	.	.	.	.	.	.	.	.	.
=62	=62	=62	=62	=62	=62	=62	=62	=62	=62	=62	=62	=62	=62	=62	=62
4ff	2r	2r	16ff	16ff	8cc]	8A-	8A-	4ff	4ff	2cc	8A-	8A-	2r	2r	2r
.	.	.	32ff	32ff	.	.	.	.	.	.	.	.	.	.	.
.	.	.	32gg	32gg	.	.	.	.	.	.	.	.	.	.	.
.	.	.	16aa-	16aa-	4cc	8c	8c	.	.	.	8c	8c	.	.	.
.	.	.	16ff	16ff	.	.	.	.	.	.	.	.	.	.	.
4bb-	.	.	16gg	16gg	.	8E	8E	4bb-	4gg	.	8E	8E	.	.	.
.	.	.	32gg	32gg	.	.	.	.	.	.	.	.	.	.	.
.	.	.	32aa-	32aa-	.	.	.	.	.	.	.	.	.	.	.
.	.	.	16bb-	16bb-	[8cc	8c	8c	.	.	.	8c	8c	.	.	.
.	.	.	16gg	16gg	.	.	.	.	.	.	.	.	.	.	.
=63	=63	=63	=63	=63	=63	=63	=63	=63	=63	=63	=63	=63	=63	=63	=63
4aa-	2r	2r	16aa-	16aa-	8cc]	8F	8F	4aa-	4aa-	2cc	8F	8F	2r	2r	2r
.	.	.	32cc	32cc	.	.	.	.	.	.	.	.	.	.	.
.	.	.	32b	32b	.	.	.	.	.	.	.	.	.	.	.
.	.	.	16cc	16cc	4c	8F	8F	.	.	.	8F	8F	.	.	.
.	.	.	16aa-	16aa-	.	.	.	.	.	.	.	.	.	.	.
4gg	.	.	16gg	16gg	.	8G	8G	4gg	4gg	.	8G	8G	.	.	.
.	.	.	32cc	32cc	.	.	.	.	.	.	.	.	.	.	.
.	.	.	32b	32b	.	.	.	.	.	.	.	.	.	.	.
.	.	.	16cc	16cc	[8c	8G	8G	.	.	.	8G	8G	.	.	.
.	.	.	16gg	16gg	.	.	.	.	.	.	.	.	.	.	.
=64	=64	=64	=64	=64	=64	=64	=64	=64	=64	=64	=64	=64	=64	=64	=64
2ff#	2r	2r	16ff#	16ff#	8c]	8A-	8A-	2ff#	2ff#	8cc	8A-	8A-	2r	2r	2r
.	.	.	32cc	32cc	.	.	.	.	.	.	.	.	.	.	.
.	.	.	32b	32b	.	.	.	.	.	.	.	.	.	.	.
.	.	.	16cc	16cc	4f#	8A-	8A-	.	.	4ee-	8A-	8A-	.	.	.
.	.	.	16dd	16dd	.	.	.	.	.	.	.	.	.	.	.
.	.	.	16.ee-	16.ee-	.	8r	8r	.	.	.	8r	8r	.	.	.
.	.	.	32ee-	32ee-	.	.	.	.	.	.	.	.	.	.	.
.	.	.	16.dd	16.dd	8f#	8A-	8A-	.	.	8cc	8A-	8A-	.	.	.
.	.	.	32cc	32cc	.	.	.	.	.	.	.	.	.	.	.
=65	=65	=65	=65	=65	=65	=65	=65	=65	=65	=65	=65	=65	=65	=65	=65
4.gg	4g	4GG	16gg	16gg	16g	16G	16G	4.gg	4.gg	4.b	16G	16G	2r	2r	4g
.	.	.	32ff	32ff	32f	32F	32F	.	.	.	32F	32F	.	.	.
.	.	.	32ee-	32ee-	32e-	32E-	32E-	.	.	.	32E-	32E-	.	.	.
.	.	.	32dd	32dd	32d	32D	32D	.	.	.	32D	32D	.	.	.
.	.	.	32cc	32cc	32c	32C	32C	.	.	.	32C	32C	.	.	.
.	.	.	32b	32b	32B	32BB	32BB	.	.	.	32BB	32BB	.	.	.
.	.	.	32a	32a	32A	32AA	32AA	.	.	.	32AA	32AA	.	.	.
.	8r	8r	16g	16g	8G	8GG	8GG	.	.	.	8GG	8GG	.	.	8r
.	.	.	32gg	32dd	.	.	.	.	.	.	.	.	.	.	.
.	.	.	32aa	32ee-	.	.	.	.	.	.	.	.	.	.	.
8bb	8g	8GG	16bb	16ff	16.g	16.GG	16.GG	8bb	8bb	8dd	16.GG	16.GG	.	.	8g
.	.	.	16gg	16dd	.	.	.	.	.	.	.	.	.	.	.
.	.	.	.	.	32g	32GG	32GG	.	.	.	32GG	32GG	.	.	.
=66	=66	=66	=66	=66	=66	=66	=66	=66	=66	=66	=66	=66	=66	=66	=66
8ccc	8cc	8GG	16.ccc	16.ee-	16.g	16.GG	16.GG	8ccc	8ccc	8ee-	16.GG	16.GG	2r	2r	8cc
.	.	.	32ccc	32ee-	32g	32GG	32GG	.	.	.	32GG	32GG	.	.	.
8ddd	8g	16.GG	16.ddd	16.b	16.f	16.GG	16.GG	8ddd	8ddd	8b	16.GG	16.GG	.	.	8g
.	.	32GG	32ddd	32b	32f	32GG	32GG	.	.	.	32GG	32GG	.	.	.
8eee-	8cc	8GG	16.eee-	16.cc	16.e-	16.GG	16.GG	8eee-	8ccc	8cc	16.GG	16.GG	.	.	8cc
.	.	.	32eee-	32cc	32e-	32GG	32GG	.	.	.	32GG	32GG	.	.	.
8ee-	8cc	8GG	16.ff#	16.cc	16.e-	16.GG	16.GG	8ee-	8ff#	8cc	16.GG	16.GG	.	.	8cc
.	.	.	32ff#	32cc	32c	32GG	32GG	.	.	.	32GG	32GG	.	.	.
=67	=67	=67	=67	=67	=67	=67	=67	=67	=67	=67	=67	=67	=67	=67	=67
8dd	4g	4GG	16gg	16gg	16g	16G	16G	8dd	4.gg	4.b	16G	16G	2r	2r	4g
.	.	.	32ff	32ff	32f	32F	32F	.	.	.	32F	32F	.	.	.
.	.	.	32ee-	32ee-	32e-	32E-	32E-	.	.	.	32E-	32E-	.	.	.
4b	.	.	32dd	32dd	32d	32D	32D	4b	.	.	32D	32D	.	.	.
.	.	.	32cc	32cc	32c	32C	32C	.	.	.	32C	32C	.	.	.
.	.	.	32b	32b	32B	32BB	32BB	.	.	.	32BB	32BB	.	.	.
.	.	.	32a	32a	32A	32AA	32AA	.	.	.	32AA	32AA	.	.	.
.	8r	8r	16g	16g	16G	16GG	16GG	.	.	.	16GG	16GG	.	.	8r
.	.	.	32b	32b	32b	32B	32B	.	.	.	32B	32B	.	.	.
.	.	.	32cc	32cc	32cc	32c	32c	.	.	.	32c	32c	.	.	.
8ff	8g	8GG	16dd	16dd	16dd	16d	16d	8ff	8bb	8g	16d	16d	.	.	8g
.	.	.	16b	16b	16b	16B	16B	.	.	.	16B	16B	.	.	.
=68	=68	=68	=68	=68	=68	=68	=68	=68	=68	=68	=68	=68	=68	=68	=68
8ee-	8cc	8GG	16.cc	16.cc	16.cc	16.c	16.c	8ee-	8ccc	8cc	16.c	16.c	2r	2r	8cc
.	.	.	32cc	32cc	32cc	32c	32c	.	.	.	32c	32c	.	.	.
8gg	8g	16.GG	16.g	16.g	16.g	16.G	16.G	8gg	8gg	8g	16.G	16.G	.	.	8g
.	.	32GG	32g	32g	32g	32G	32G	.	.	.	32G	32G	.	.	.
8ee-	8cc	8GG	16.e-	16.e-	16.e-	16.E-	16.E-	8ee-	8ee-	8e-	16.E-	16.E-	.	.	8cc
.	.	.	32e-	32e-	32e-	32E-	32E-	.	.	.	32E-	32E-	.	.	.
8cc	8cc	8GG	16.c	16.c	16.c	16.C	16.C	8cc	8cc	8c	16.C	16.C	.	.	8cc
.	.	.	32c	32c	32c	32C	32C	.	.	.	32C	32C	.	.	.
=69	=69	=69	=69	=69	=69	=69	=69	=69	=69	=69	=69	=69	=69	=69	=69
[6..g	4g	4GG	16G	16G	8G	8GG	8GG	[6..g	[6..g	[6..g	[4GG	[4GG	2r	2r	4g
.	.	.	32A	32A	.	.	.	.	.	.	.	.	.	.	.
.	.	.	32B	32B	.	.	.	.	.	.	.	.	.	.	.
.	.	.	32c	32c	8r	8r	8r	.	.	.	.	.	.	.	.
.	.	.	32d	32d	.	.	.	.	.	.	.	.	.	.	.
.	.	.	32e	32e	.	.	.	.	.	.	.	.	.	.	.
.	.	.	32f#	32f#	.	.	.	.	.	.	.	.	.	.	.
.	8g	8GG	16g	16g	16G	16GG	16GG	.	.	.	16GG]	16GG]	.	.	8g
48g]	.	.	.	.	.	.	.	48g]	48g]	48g]	.	.	.	.	.
32a	.	.	32a	32a	32A	32AA	32AA	32a	32a	32a	32AA	32AA	.	.	.
32b	.	.	32b	32b	32B	32BB	32BB	32b	32b	32b	32BB	32BB	.	.	.
32cc	8g	8GG	32cc	32cc	32c	32C	32C	32cc	32cc	32cc	32C	32C	.	.	8g
32dd	.	.	32dd	32dd	32d	32D	32D	32dd	32dd	32dd	32D	32D	.	.	.
32ee	.	.	32ee	32ee	32e	32E	32E	32ee	32ee	32ee	32E	32E	.	.	.
32ff#	.	.	32ff#	32ff#	32f#	32F#	32F#	32ff#	32ff#	32ff#	32F#	32F#	.	.	.
=70	=70	=70	=70	=70	=70	=70	=70	=70	=70	=70	=70	=70	=70	=70	=70
4gg	4g	4GG	4.gg	4gg	4g	4G	4G	4gg	4gg	4gg	4G	4G	2r	2r	4g
4r	4r	4r	.	4r	4r	4r	4r	4r	4r	4r	4r	4r	.	.	4r
.	.	.	8bb	.	.	.	.	.	.	.	.	.	.	.	.
=71	=71	=71	=71	=71	=71	=71	=71	=71	=71	=71	=71	=71	=71	=71	=71
2r	2r	2r	8ddd	2r	2r	2r	2r	2r	2r	2r	2r	2r	2r	2r	2r
.	.	.	8bb	.	.	.	.	.	.	.	.	.	.	.	.
.	.	.	8gg	.	.	.	.	.	.	.	.	.	.	.	.
.	.	.	8ff#	.	.	.	.	.	.	.	.	.	.	.	.
=72	=72	=72	=72	=72	=72	=72	=72	=72	=72	=72	=72	=72	=72	=72	=72
2r	2r	2r	[6..ff	2r	2r	2r	2r	2r	2r	2r	2r	2r	2r	2r	2r
.	.	.	48ff]	.	.	.	.	.	.	.	.	.	.	.	.
.	.	.	16ee	.	.	.	.	.	.	.	.	.	.	.	.
.	.	.	16gg	.	.	.	.	.	.	.	.	.	.	.	.
.	.	.	16ff	.	.	.	.	.	.	.	.	.	.	.	.
=73	=73	=73	=73	=73	=73	=73	=73	=73	=73	=73	=73	=73	=73	=73	=73
2r	2r	2r	8aa	2r	2r	2r	2r	2r	2r	2r	2r	2r	2r	2r	2r
.	.	.	8aa	.	.	.	.	.	.	.	.	.	.	.	.
.	.	.	8ff	.	.	.	.	.	.	.	.	.	.	.	.
.	.	.	8ff	.	.	.	.	.	.	.	.	.	.	.	.
=74	=74	=74	=74	=74	=74	=74	=74	=74	=74	=74	=74	=74	=74	=74	=74
2r	2r	2r	8dd	2r	2r	2r	2r	2r	2r	2r	2r	2r	2r	2r	2r
.	.	.	8dd	.	.	.	.	.	.	.	.	.	.	.	.
.	.	.	8b	.	.	.	.	.	.	.	.	.	.	.	.
.	.	.	8b	.	.	.	.	.	.	.	.	.	.	.	.
=75	=75	=75	=75	=75	=75	=75	=75	=75	=75	=75	=75	=75	=75	=75	=75
2r	2r	2r	16e	16c	16c	4C	4C	2r	16cc	2r	4C	4C	2r	2r	2r
.	.	.	16g	16e	16e	.	.	.	16cc	.	.	.	.	.	.
.	.	.	16e	16c	16c	.	.	.	16cc	.	.	.	.	.	.
.	.	.	16g	16e	16e	.	.	.	16cc	.	.	.	.	.	.
.	.	.	16e	16c	16c	4r	4r	.	16ee	.	4r	4r	.	.	.
.	.	.	16g	16e	16e	.	.	.	16ee	.	.	.	.	.	.
.	.	.	16e	16c	16c	.	.	.	16ee	.	.	.	.	.	.
.	.	.	16g	16e	16e	.	.	.	16ee	.	.	.	.	.	.
=76	=76	=76	=76	=76	=76	=76	=76	=76	=76	=76	=76	=76	=76	=76	=76
2r	2r	2r	16e	16c	16c	4C	4C	2r	16gg	2r	4C	4C	2r	2r	2r
.	.	.	16g	16e	16e	.	.	.	16gg	.	.	.	.	.	.
.	.	.	16e	16c	16c	.	.	.	16gg	.	.	.	.	.	.
.	.	.	16g	16e	16e	.	.	.	16gg	.	.	.	.	.	.
.	.	.	16e	16c	16c	4r	4r	.	4ee	.	4r	4r	.	.	.
.	.	.	16g	16e	16e	.	.	.	.	.	.	.	.	.	.
.	.	.	16e	16c	16c	.	.	.	.	.	.	.	.	.	.
.	.	.	16g	16e	16e	.	.	.	.	.	.	.	.	.	.
=77	=77	=77	=77	=77	=77	=77	=77	=77	=77	=77	=77	=77	=77	=77	=77
2r	2r	2r	16A	16A	16F	4F	4F	2r	16ff	2r	4F	4F	2r	2r	2r
.	.	.	16d	16d	16A	.	.	.	16ff	.	.	.	.	.	.
.	.	.	16A	16A	16F	.	.	.	16ff	.	.	.	.	.	.
.	.	.	16d	16d	16A	.	.	.	16ff	.	.	.	.	.	.
.	.	.	16A	16A	16F	4r	4r	.	16dd	.	4r	4r	.	.	.
.	.	.	16d	16d	16A	.	.	.	16dd	.	.	.	.	.	.
.	.	.	16A	16A	16F	.	.	.	16dd	.	.	.	.	.	.
.	.	.	16d	16d	16A	.	.	.	16dd	.	.	.	.	.	.
=78	=78	=78	=78	=78	=78	=78	=78	=78	=78	=78	=78	=78	=78	=78	=78
2r	2r	2r	16B	16G	16G	4G	4G	2r	16b	2r	4G	4G	2r	2r	2r
.	.	.	16d	16B	16B	.	.	.	16b	.	.	.	.	.	.
.	.	.	16B	16G	16G	.	.	.	16b	.	.	.	.	.	.
.	.	.	16d	16B	16B	.	.	.	16b	.	.	.	.	.	.
.	.	.	16B	16G	16G	4r	4r	.	4g	.	4r	4r	.	.	.
.	.	.	16f	16d	16d	.	.	.	.	.	.	.	.	.	.
.	.	.	16d	16B	16B	.	.	.	.	.	.	.	.	.	.
.	.	.	16f	16d	16d	.	.	.	.	.	.	.	.	.	.
=79	=79	=79	=79	=79	=79	=79	=79	=79	=79	=79	=79	=79	=79	=79	=79
2r	2r	2r	16e	16c	16c	4C	4C	2r	16cc	2r	4C	4C	2r	2r	2r
.	.	.	16g	16e	16e	.	.	.	16cc	.	.	.	.	.	.
.	.	.	16e	16c	16c	.	.	.	16cc	.	.	.	.	.	.
.	.	.	16g	16e	16e	.	.	.	16cc	.	.	.	.	.	.
.	.	.	16e	16c	16c	4r	4r	.	16ee	.	4r	4r	.	.	.
.	.	.	16g	16e	16e	.	.	.	16ee	.	.	.	.	.	.
.	.	.	16e	16c	16c	.	.	.	16ee	.	.	.	.	.	.
.	.	.	16g	16e	16e	.	.	.	16ee	.	.	.	.	.	.
=80	=80	=80	=80	=80	=80	=80	=80	=80	=80	=80	=80	=80	=80	=80	=80
2r	2r	2r	16e	16c	16c	4C	4C	2r	16gg	2r	4C	4C	2r	2r	2r
.	.	.	16g	16e	16e	.	.	.	16gg	.	.	.	.	.	.
.	.	.	16e	16c	16c	.	.	.	16gg	.	.	.	.	.	.
.	.	.	16g	16e	16e	.	.	.	16gg	.	.	.	.	.	.
.	.	.	16e	16c	16c	4r	4r	.	4ee	.	4r	4r	.	.	.
.	.	.	16g	16e	16e	.	.	.	.	.	.	.	.	.	.
.	.	.	16e	16c	16c	.	.	.	.	.	.	.	.	.	.
.	.	.	16g	16e	16e	.	.	.	.	.	.	.	.	.	.
=81	=81	=81	=81	=81	=81	=81	=81	=81	=81	=81	=81	=81	=81	=81	=81
2r	2r	2r	16e	16c	16c	8AA	8AA	2r	16ccc	2r	8AA	8AA	2r	2r	2r
.	.	.	16a	16e	16e	.	.	.	16ccc	.	.	.	.	.	.
.	.	.	16e	16c	16c	8r	8r	.	16ccc	.	8r	8r	.	.	.
.	.	.	16a	16e	16e	.	.	.	16ccc	.	.	.	.	.	.
.	.	.	16c	16A	16D	8D	8D	.	16ff#	.	8D	8D	.	.	.
.	.	.	16f#	16c	16d	.	.	.	16ff#	.	.	.	.	.	.
.	.	.	16c	16A	16D	8r	8r	.	16ff#	.	8r	8r	.	.	.
.	.	.	16f#	16c	16d	.	.	.	16ff#	.	.	.	.	.	.
=82	=82	=82	=82	=82	=82	=82	=82	=82	=82	=82	=82	=82	=82	=82	=82
2r	2r	2r	16B	16B	16G	4GG	4GG	2r	4gg	2r	4GG	4GG	2r	2r	2r
.	.	.	16g	16d	16B	.	.	.	.	.	.	.	.	.	.
.	.	.	16B	16B	16G	.	.	.	.	.	.	.	.	.	.
.	.	.	16g	16d	16B	.	.	.	.	.	.	.	.	.	.
.	.	.	8B	8B	8G	4r	4r	.	8g	.	4r	4r	.	.	.
.	.	.	8r	8r	8r	.	.	.	8r	.	.	.	.	.	.
=83	=83	=83	=83	=83	=83	=83	=83	=83	=83	=83	=83	=83	=83	=83	=83
4eee	2r	2r	8c	8c	2r	2r	2r	2r	4gg	2r	2r	2r	2r	2r	2r
.	.	.	8c	8c	.	.	.	.	.	.	.	.	.	.	.
4ccc	.	.	8e	8e	.	.	.	.	4ee	.	.	.	.	.	.
.	.	.	8e	8e	.	.	.	.	.	.	.	.	.	.	.
=84	=84	=84	=84	=84	=84	=84	=84	=84	=84	=84	=84	=84	=84	=84	=84
8.bb	2r	2r	8g	8g	2r	2r	2r	2r	8.dd	2r	2r	2r	2r	2r	2r
.	.	.	8g	8g	.	.	.	.	.	.	.	.	.	.	.
32ccc	.	.	.	.	.	.	.	.	32ee	.	.	.	.	.	.
32ddd	.	.	.	.	.	.	.	.	32ff	.	.	.	.	.	.
8ccc	.	.	4e	4e	.	.	.	.	8ee	.	.	.	.	.	.
8bb	.	.	.	.	.	.	.	.	8gg	.	.	.	.	.	.
=85	=85	=85	=85	=85	=85	=85	=85	=85	=85	=85	=85	=85	=85	=85	=85
[6..aa	2r	2r	8f	8f	2r	2r	2r	2r	4gg	2r	2r	2r	2r	2r	2r
.	.	.	8f	8f	.	.	.	.	.	.	.	.	.	.	.
.	.	.	8d	8d	.	.	.	.	4ff	.	.	.	.	.	.
48aa]	.	.	.	.	.	.	.	.	.	.	.	.	.	.	.
16bb	.	.	.	.	.	.	.	.	.	.	.	.	.	.	.
16ccc	.	.	8d	8d	.	.	.	.	.	.	.	.	.	.	.
16ddd	.	.	.	.	.	.	.	.	.	.	.	.	.	.	.
=86	=86	=86	=86	=86	=86	=86	=86	=86	=86	=86	=86	=86	=86	=86	=86
4.gg	2r	2r	8B	8B	2r	2r	2r	2r	8.ff	2r	2r	2r	2r	2r	2r
.	.	.	8B	8B	.	.	.	.	.	.	.	.	.	.	.
.	.	.	.	.	.	.	.	.	32ee	.	.	.	.	.	.
.	.	.	.	.	.	.	.	.	32ff	.	.	.	.	.	.
.	.	.	4G	4G	.	.	.	.	8gg	.	.	.	.	.	.
16aa	.	.	.	.	.	.	.	.	8ff	.	.	.	.	.	.
16gg	.	.	.	.	.	.	.	.	.	.	.	.	.	.	.
=87	=87	=87	=87	=87	=87	=87	=87	=87	=87	=87	=87	=87	=87	=87	=87
4gg	2r	2r	8c	8c	2r	2r	2r	2r	4ee	2r	2r	2r	2r	2r	2r
.	.	.	8c	8c	.	.	.	.	.	.	.	.	.	.	.
4ee	.	.	8e	8e	.	.	.	.	4cc	.	.	.	.	.	.
.	.	.	8e	8e	.	.	.	.	.	.	.	.	.	.	.
=88	=88	=88	=88	=88	=88	=88	=88	=88	=88	=88	=88	=88	=88	=88	=88
4dd#	2r	2r	8g	8g	2r	2r	2r	2r	4b	2r	2r	2r	2r	2r	2r
.	.	.	8g	8g	.	.	.	.	.	.	.	.	.	.	.
4ee	.	.	4e	4e	.	.	.	.	4cc	.	.	.	.	.	.
=89	=89	=89	=89	=89	=89	=89	=89	=89	=89	=89	=89	=89	=89	=89	=89
4aa	2r	2r	8cc	8cc	2r	2r	2r	2r	4ee	2r	2r	2r	2r	2r	2r
.	.	.	8cc	8cc	.	.	.	.	.	.	.	.	.	.	.
8.ddd	.	.	8f#	8f#	.	.	.	.	4cc	.	.	.	.	.	.
.	.	.	8f#	8f#	.	.	.	.	.	.	.	.	.	.	.
48ccc	.	.	.	.	.	.	.	.	.	.	.	.	.	.	.
48bb	.	.	.	.	.	.	.	.	.	.	.	.	.	.	.
48aa	.	.	.	.	.	.	.	.	.	.	.	.	.	.	.
=90	=90	=90	=90	=90	=90	=90	=90	=90	=90	=90	=90	=90	=90	=90	=90
8gg	2r	2r	4g	4g	2r	2r	2r	2r	8b	2r	2r	2r	2r	2r	2r
8gg	.	.	.	.	.	.	.	.	8b	.	.	.	.	.	.
8gg	.	.	8G	8G	.	.	.	.	8b	.	.	.	.	.	.
8r	.	.	8r	8r	.	.	.	.	8r	.	.	.	.	.	.
=91	=91	=91	=91	=91	=91	=91	=91	=91	=91	=91	=91	=91	=91	=91	=91
4bb	2r	2r	8f	8f	2r	2r	2r	2r	4dd	2r	2r	2r	2r	2r	2r
.	.	.	16G	16G	.	.	.	.	.	.	.	.	.	.	.
.	.	.	16r	16r	.	.	.	.	.	.	.	.	.	.	.
4ccc	.	.	8e	8e	.	.	.	.	4ee	.	.	.	.	.	.
.	.	.	16G	16G	.	.	.	.	.	.	.	.	.	.	.
.	.	.	16r	16r	.	.	.	.	.	.	.	.	.	.	.
=92	=92	=92	=92	=92	=92	=92	=92	=92	=92	=92	=92	=92	=92	=92	=92
8ff	2r	2r	8d	8d	2r	2r	2r	2r	8b	2r	2r	2r	2r	2r	2r
8ff	.	.	8d	8d	.	.	.	.	8b	.	.	.	.	.	.
16ff	.	.	16d	16d	.	.	.	.	8b	.	.	.	.	.	.
16ee	.	.	16c#	16c#	.	.	.	.	.	.	.	.	.	.	.
16ff	.	.	16d	16d	.	.	.	.	8r	.	.	.	.	.	.
16gg	.	.	16e	16e	.	.	.	.	.	.	.	.	.	.	.
=93	=93	=93	=93	=93	=93	=93	=93	=93	=93	=93	=93	=93	=93	=93	=93
8aa	2r	2r	16f	16f	2r	2r	2r	2r	8b	2r	2r	2r	2r	2r	2r
.	.	.	16G	16G	.	.	.	.	.	.	.	.	.	.	.
8gg	.	.	16e	16e	.	.	.	.	8cc	.	.	.	.	.	.
.	.	.	16G	16G	.	.	.	.	.	.	.	.	.	.	.
8ff	.	.	16d	16d	.	.	.	.	8b	.	.	.	.	.	.
.	.	.	16G	16G	.	.	.	.	.	.	.	.	.	.	.
8ee	.	.	16c	16c	.	.	.	.	8cc	.	.	.	.	.	.
.	.	.	16G	16G	.	.	.	.	.	.	.	.	.	.	.
=94	=94	=94	=94	=94	=94	=94	=94	=94	=94	=94	=94	=94	=94	=94	=94
16dd	2r	2r	4g	4g	2r	2r	2r	2r	16b	2r	2r	2r	2r	2r	2r
16ee	.	.	.	.	.	.	.	.	16cc	.	.	.	.	.	.
16ff	.	.	.	.	.	.	.	.	16dd	.	.	.	.	.	.
16gg	.	.	.	.	.	.	.	.	16ee	.	.	.	.	.	.
16aa	.	.	4r	4r	.	.	.	.	16ff	.	.	.	.	.	.
16bb	.	.	.	.	.	.	.	.	16gg	.	.	.	.	.	.
16ccc	.	.	.	.	.	.	.	.	16aa	.	.	.	.	.	.
16ddd	.	.	.	.	.	.	.	.	16bb	.	.	.	.	.	.
=95	=95	=95	=95	=95	=95	=95	=95	=95	=95	=95	=95	=95	=95	=95	=95
4eee	2r	2r	8c	8c	2r	2r	2r	2r	4ccc	2r	2r	2r	2r	2r	2r
.	.	.	8c	8c	.	.	.	.	.	.	.	.	.	.	.
4ccc	.	.	8e	8e	.	.	.	.	4gg	.	.	.	.	.	.
.	.	.	8e	8e	.	.	.	.	.	.	.	.	.	.	.
=96	=96	=96	=96	=96	=96	=96	=96	=96	=96	=96	=96	=96	=96	=96	=96
[12..gg	2r	2r	8g	8g	2r	2r	2r	2r	[12..ee	2r	2r	2r	2r	2r	2r
.	.	.	8g	8g	.	.	.	.	.	.	.	.	.	.	.
96gg]	.	.	.	.	.	.	.	.	96ee]	.	.	.	.	.	.
32aa	.	.	.	.	.	.	.	.	32ff	.	.	.	.	.	.
32gg	.	.	.	.	.	.	.	.	32ee	.	.	.	.	.	.
32ff	.	.	.	.	.	.	.	.	32dd	.	.	.	.	.	.
8ee	.	.	4cc	4cc	.	.	.	.	8cc	.	.	.	.	.	.
8ccc	.	.	.	.	.	.	.	.	8ee	.	.	.	.	.	.
=97	=97	=97	=97	=97	=97	=97	=97	=97	=97	=97	=97	=97	=97	=97	=97
8aa	2r	2r	8f	8f	2r	2r	2r	2r	8ff	2r	2r	2r	2r	2r	2r
8aa	.	.	8f	8f	.	.	.	.	8ff	.	.	.	.	.	.
16gg	.	.	8g	8g	.	.	.	.	16ee	.	.	.	.	.	.
16ff	.	.	.	.	.	.	.	.	16dd	.	.	.	.	.	.
16ee	.	.	8g	8g	.	.	.	.	16cc	.	.	.	.	.	.
16dd	.	.	.	.	.	.	.	.	16b	.	.	.	.	.	.
=98	=98	=98	=98	=98	=98	=98	=98	=98	=98	=98	=98	=98	=98	=98	=98
8cc	2r	2r	8c	8c	2r	2r	2r	2r	8cc	2r	2r	2r	2r	2r	2r
8cc	.	.	8c	8c	.	.	.	.	8g	.	.	.	.	.	.
8cc	.	.	8c	8c	.	.	.	.	8e	.	.	.	.	.	.
8r	.	.	8r	8r	.	.	.	.	8r	.	.	.	.	.	.
=99	=99	=99	=99	=99	=99	=99	=99	=99	=99	=99	=99	=99	=99	=99	=99
4bb	2r	2r	8f	8f	2r	2r	2r	2r	4dd	2r	2r	2r	[2g	[2G	2r
.	.	.	16G	16G	.	.	.	.	.	.	.	.	.	.	.
.	.	.	16r	16r	.	.	.	.	.	.	.	.	.	.	.
4ccc	.	.	8e	8e	.	.	.	.	4ee	.	.	.	.	.	.
.	.	.	16G	16G	.	.	.	.	.	.	.	.	.	.	.
.	.	.	16r	16r	.	.	.	.	.	.	.	.	.	.	.
=100	=100	=100	=100	=100	=100	=100	=100	=100	=100	=100	=100	=100	=100	=100	=100
8ff	2r	2r	8d	8d	2r	2r	2r	2r	8g	2r	2r	2r	2g_	2G_	2r
8ff	.	.	8d	8d	.	.	.	.	8g	.	.	.	.	.	.
16ff	.	.	16d	16d	.	.	.	.	8g	.	.	.	.	.	.
16ee	.	.	16c#	16c#	.	.	.	.	.	.	.	.	.	.	.
16ff	.	.	16d	16d	.	.	.	.	8r	.	.	.	.	.	.
16gg	.	.	16e	16e	.	.	.	.	.	.	.	.	.	.	.
=101	=101	=101	=101	=101	=101	=101	=101	=101	=101	=101	=101	=101	=101	=101	=101
8aa	2r	2r	16f	16f	2r	2r	2r	2r	8b	2r	2r	2r	2g_	2G_	2r
.	.	.	16G	16G	.	.	.	.	.	.	.	.	.	.	.
8gg	.	.	16e	16e	.	.	.	.	8cc	.	.	.	.	.	.
.	.	.	16G	16G	.	.	.	.	.	.	.	.	.	.	.
8ff	.	.	16d	16d	.	.	.	.	8b	.	.	.	.	.	.
.	.	.	16G	16G	.	.	.	.	.	.	.	.	.	.	.
8ee	.	.	16c	16c	.	.	.	.	8cc	.	.	.	.	.	.
.	.	.	16G	16G	.	.	.	.	.	.	.	.	.	.	.
=102	=102	=102	=102	=102	=102	=102	=102	=102	=102	=102	=102	=102	=102	=102	=102
16dd	2r	2r	4g	4g	2r	2r	2r	2r	16b	2r	2r	2r	4g]	4G]	2r
16ee	.	.	.	.	.	.	.	.	16cc	.	.	.	.	.	.
16ff	.	.	.	.	.	.	.	.	16dd	.	.	.	.	.	.
16gg	.	.	.	.	.	.	.	.	16ee	.	.	.	.	.	.
16aa	.	.	4r	4r	.	.	.	.	16ff	.	.	.	4r	4r	.
16bb	.	.	.	.	.	.	.	.	16gg	.	.	.	.	.	.
16ccc	.	.	.	.	.	.	.	.	16aa	.	.	.	.	.	.
16ddd	.	.	.	.	.	.	.	.	16bb	.	.	.	.	.	.
=103	=103	=103	=103	=103	=103	=103	=103	=103	=103	=103	=103	=103	=103	=103	=103
4eee	2r	2r	8c	8c	2r	2r	2r	2r	4ccc	2r	2r	2r	4e	4c	2r
.	.	.	8c	8c	.	.	.	.	.	.	.	.	.	.	.
4ccc	.	.	8e	8e	.	.	.	.	4gg	.	.	.	4g	4e	.
.	.	.	8e	8e	.	.	.	.	.	.	.	.	.	.	.
=104	=104	=104	=104	=104	=104	=104	=104	=104	=104	=104	=104	=104	=104	=104	=104
[12..gg	2r	2r	8g	8g	2r	2r	2r	2r	[12..ee	2r	2r	2r	4cc	4g	2r
.	.	.	8g	8g	.	.	.	.	.	.	.	.	.	.	.
96gg]	.	.	.	.	.	.	.	.	96ee]	.	.	.	.	.	.
32aa	.	.	.	.	.	.	.	.	32ff	.	.	.	.	.	.
32gg	.	.	.	.	.	.	.	.	32ee	.	.	.	.	.	.
32ff	.	.	.	.	.	.	.	.	32dd	.	.	.	.	.	.
8ee	.	.	4cc	4cc	.	.	.	.	8cc	.	.	.	4ee	4cc	.
8ccc	.	.	.	.	.	.	.	.	8ee	.	.	.	.	.	.
=105	=105	=105	=105	=105	=105	=105	=105	=105	=105	=105	=105	=105	=105	=105	=105
8aa	2r	2r	8f	8f	2r	2r	2r	2r	8ff	2r	2r	2r	2r	2r	2r
8aa	.	.	8f	8f	.	.	.	.	8ff	.	.	.	.	.	.
16gg	.	.	8g	8g	.	.	.	.	16ee	.	.	.	.	.	.
16ff	.	.	.	.	.	.	.	.	16dd	.	.	.	.	.	.
16ee	.	.	8g	8g	.	.	.	.	16cc	.	.	.	.	.	.
16dd	.	.	.	.	.	.	.	.	16b	.	.	.	.	.	.
=106	=106	=106	=106	=106	=106	=106	=106	=106	=106	=106	=106	=106	=106	=106	=106
8cc	2r	2r	8c	8c	2r	2r	2r	2r	8cc	2r	2r	2r	2r	2r	2r
8cc	.	.	8c	8c	.	.	.	.	8g	.	.	.	.	.	.
8cc	.	.	8c	8c	.	.	.	.	8e	.	.	.	.	.	.
8r	.	.	8r	8r	.	.	.	.	8r	.	.	.	.	.	.
=107	=107	=107	=107	=107	=107	=107	=107	=107	=107	=107	=107	=107	=107	=107	=107
8ccc	8e	8C	24c	8r	8r	8r	8r	8ccc	8cc	8e	8r	8r	8cc	8e	8cc
.	.	.	24e	.	.	.	.	.	.	.	.	.	.	.	.
.	.	.	24g	.	.	.	.	.	.	.	.	.	.	.	.
8ccc	8e	8C	24cc	8G 8cc 8e	8e 8G 8C	8CC 8c 8E 8GG	8C	8ccc	8cc	8e	8C	8C	8cc	8e	8cc
.	.	.	24b	.	.	.	.	.	.	.	.	.	.	.	.
.	.	.	24cc	.	.	.	.	.	.	.	.	.	.	.	.
8eee	8cc	8C	24e	8r	8r	8r	8r	8eee	8ee	8cc	8r	8r	8ee	8cc	8ee
.	.	.	24g	.	.	.	.	.	.	.	.	.	.	.	.
.	.	.	24cc	.	.	.	.	.	.	.	.	.	.	.	.
8eee	8cc	8C	24ee	8cc 8e 8G	8G 8C 8e	8CC 8c 8E 8GG	8C	8eee	8ee	8cc	8C	8C	8ee	8cc	8ee
.	.	.	24dd	.	.	.	.	.	.	.	.	.	.	.	.
.	.	.	24ee	.	.	.	.	.	.	.	.	.	.	.	.
=108	=108	=108	=108	=108	=108	=108	=108	=108	=108	=108	=108	=108	=108	=108	=108
8ggg	8ee	8C	24g	8r	8r	8r	8r	8ggg	8gg	8ee	8r	8r	8gg	8ee	8gg
.	.	.	24cc	.	.	.	.	.	.	.	.	.	.	.	.
.	.	.	24ee	.	.	.	.	.	.	.	.	.	.	.	.
8ggg	8ee	8C	24gg	8ee 8g 8cc	8C 8G 8e	8CC 8GG 8c 8E	8C	8ggg	8gg	8ee	8C	8C	8gg	8ee	8gg
.	.	.	24ff#	.	.	.	.	.	.	.	.	.	.	.	.
.	.	.	24gg	.	.	.	.	.	.	.	.	.	.	.	.
8eee	8cc	8C	24cc	8r	8r	8r	8r	8eee	8ee	8cc	8r	8r	8ee	8cc	8ee
.	.	.	24ee	.	.	.	.	.	.	.	.	.	.	.	.
.	.	.	24gg	.	.	.	.	.	.	.	.	.	.	.	.
8eee	8cc	8C	24ccc	8cc 8gg 8e	8e 8G 8C	8c 8CC 8E 8GG	8C	8eee	8ee	8cc	8C	8C	8ee	8cc	8ee
.	.	.	24gg	.	.	.	.	.	.	.	.	.	.	.	.
.	.	.	24ee	.	.	.	.	.	.	.	.	.	.	.	.
=109	=109	=109	=109	=109	=109	=109	=109	=109	=109	=109	=109	=109	=109	=109	=109
8fff	8dd	4GG	24ff	24ff	8d	8D	8D	8fff	8ff	8ff	8D	8D	8ff	8dd	8ff
.	.	.	24gg	24gg	.	.	.	.	.	.	.	.	.	.	.
.	.	.	24aa	24aa	.	.	.	.	.	.	.	.	.	.	.
8fff	8dd	.	24gg	24gg	8d	8D	8D	8fff	8ff	8ff	8D	8D	8ff	8dd	8ff
.	.	.	24ff	24ff	.	.	.	.	.	.	.	.	.	.	.
.	.	.	24ee	24ee	.	.	.	.	.	.	.	.	.	.	.
8ddd	8dd	4r	24dd	24dd	8f	8F	8F	8ddd	8dd	8dd	8F	8F	8dd	8dd	8dd
.	.	.	24ee	24ee	.	.	.	.	.	.	.	.	.	.	.
.	.	.	24ff	24ff	.	.	.	.	.	.	.	.	.	.	.
8ddd	8dd	.	24ee	24ee	8f	8F	8F	8ddd	8dd	8dd	8F	8F	8dd	8dd	8dd
.	.	.	24dd	24dd	.	.	.	.	.	.	.	.	.	.	.
.	.	.	24cc	24cc	.	.	.	.	.	.	.	.	.	.	.
=110	=110	=110	=110	=110	=110	=110	=110	=110	=110	=110	=110	=110	=110	=110	=110
8bb	4g	4GG	24b	24b	8g	8G	8G	8bb	8b	8b	8G	8G	4dd	4g	4dd
.	.	.	24cc	24cc	.	.	.	.	.	.	.	.	.	.	.
.	.	.	24dd	24dd	.	.	.	.	.	.	.	.	.	.	.
8bb	.	.	24cc	24cc	8g	8G	8G	8bb	8b	8b	8G	8G	.	.	.
.	.	.	24b	24b	.	.	.	.	.	.	.	.	.	.	.
.	.	.	24a	24a	.	.	.	.	.	.	.	.	.	.	.
8gg	4r	4r	24g	24g	8B	8B	8B	8gg	8g	8g	8B	8B	4r	4r	4r
.	.	.	24a	24a	.	.	.	.	.	.	.	.	.	.	.
.	.	.	24g	24g	.	.	.	.	.	.	.	.	.	.	.
8gg	.	.	24f	24f	8B	8B	8B	8gg	8g	8g	8B	8B	.	.	.
.	.	.	24e	24e	.	.	.	.	.	.	.	.	.	.	.
.	.	.	24d	24d	.	.	.	.	.	.	.	.	.	.	.
=111	=111	=111	=111	=111	=111	=111	=111	=111	=111	=111	=111	=111	=111	=111	=111
8ccc	8e	8C	24c	8c	8r	8r	8r	8ccc	8cc	8e	8r	8r	8cc	8e	8cc
.	.	.	24e	.	.	.	.	.	.	.	.	.	.	.	.
.	.	.	24g	.	.	.	.	.	.	.	.	.	.	.	.
8ccc	8e	8C	24cc	8cc 8e 8G	8e 8G 8C	8CC 8c 8GG 8E	8C	8ccc	8cc	8e	8C	8C	8cc	8e	8cc
.	.	.	24b	.	.	.	.	.	.	.	.	.	.	.	.
.	.	.	24cc	.	.	.	.	.	.	.	.	.	.	.	.
8eee	8cc	8C	24e	8r	8r	8r	8r	8eee	8ee	8cc	8r	8r	8ee	8cc	8ee
.	.	.	24g	.	.	.	.	.	.	.	.	.	.	.	.
.	.	.	24cc	.	.	.	.	.	.	.	.	.	.	.	.
8eee	8cc	8C	24ee	8cc 8G 8e	8G 8e 8C	8c 8E 8CC 8GG	8C	8eee	8ee	8cc	8C	8C	8ee	8cc	8ee
.	.	.	24dd	.	.	.	.	.	.	.	.	.	.	.	.
.	.	.	24ee	.	.	.	.	.	.	.	.	.	.	.	.
=112	=112	=112	=112	=112	=112	=112	=112	=112	=112	=112	=112	=112	=112	=112	=112
8ggg	8ee	8C	24g	8r	8r	8r	8r	8ggg	8gg	8ee	8r	8r	8gg	8ee	8gg
.	.	.	24cc	.	.	.	.	.	.	.	.	.	.	.	.
.	.	.	24ee	.	.	.	.	.	.	.	.	.	.	.	.
8ggg	8ee	8C	24gg	8ee 8cc 8g	8G 8e 8C	8c 8CC 8E 8GG	8C	8ggg	8gg	8ee	8C	8C	8gg	8ee	8gg
.	.	.	24ff#	.	.	.	.	.	.	.	.	.	.	.	.
.	.	.	24gg	.	.	.	.	.	.	.	.	.	.	.	.
8eee	8cc	8C	24cc	8r	8r	8r	8r	8eee	8ee	8cc	8r	8r	8ee	8cc	8ee
.	.	.	24ee	.	.	.	.	.	.	.	.	.	.	.	.
.	.	.	24gg	.	.	.	.	.	.	.	.	.	.	.	.
8eee	8cc	8C	24ccc	8cc 8gg 8e	8G 8e 8C	8CC 8GG 8E 8c	8C	8eee	8ee	8cc	8C	8C	8ee	8cc	8ee
.	.	.	24bb	.	.	.	.	.	.	.	.	.	.	.	.
.	.	.	24ccc	.	.	.	.	.	.	.	.	.	.	.	.
=113	=113	=113	=113	=113	=113	=113	=113	=113	=113	=113	=113	=113	=113	=113	=113
8ccc	4cc	4C	24ee	24ee	8r	8r	8r	8ccc	8ccc	8ee	8r	8r	4ee	4cc	4ee
.	.	.	24eee	24ccc	.	.	.	.	.	.	.	.	.	.	.
.	.	.	24eee	24ccc	.	.	.	.	.	.	.	.	.	.	.
8eee	.	.	24eee	24ccc	8c	8C	8C	8eee	8ccc	8ee	8C	8C	.	.	.
.	.	.	24eee	24ccc	.	.	.	.	.	.	.	.	.	.	.
.	.	.	24eee	24ccc	.	.	.	.	.	.	.	.	.	.	.
24ddd	8r	4r	24ddd	24bb	8d	8D	8D	24ddd	24bb	24dd	8D	8D	8r	8r	8r
24ccc	.	.	24ccc	24aa	.	.	.	24ccc	24aa	24cc	.	.	.	.	.
24bb	.	.	24bb	24gg	.	.	.	24bb	24gg	24b	.	.	.	.	.
24aa	8dd	.	24aa	24ff#	8d	8D	8D	24aa	24ff#	24a	8D	8D	8dd	8dd	8dd
24gg	.	.	24gg	24gg	.	.	.	24gg	24gg	24b	.	.	.	.	.
24ff#	.	.	24ff#	24aa	.	.	.	24ff#	24aa	24cc	.	.	.	.	.
=114	=114	=114	=114	=114	=114	=114	=114	=114	=114	=114	=114	=114	=114	=114	=114
8gg	8g	8GG	24gg	24gg	4d	8GG	8GG	8gg	8gg	8b	8GG	8GG	8dd	8g	8dd
.	.	.	24ee	24ee	.	.	.	.	.	.	.	.	.	.	.
.	.	.	24dd	24dd	.	.	.	.	.	.	.	.	.	.	.
8gg	8g	8GG	24cc	24cc	.	8G	8G	8gg	8gg	8b	8G	8G	8dd	8g	8dd
.	.	.	24b	24b	.	.	.	.	.	.	.	.	.	.	.
.	.	.	24a	24a	.	.	.	.	.	.	.	.	.	.	.
8gg	8g	8GG	8g	8g	4r	8GG	8GG	8gg	8gg	8b	8GG	8GG	8dd	8g	8dd
8r	8r	8r	8r	8r	.	8r	8r	8r	8r	8r	8r	8r	8r	8r	8r
=115	=115	=115	=115	=115	=115	=115	=115	=115	=115	=115	=115	=115	=115	=115	=115
2r	2r	2r	8.c	8.c	8r	8r	8r	2r	2r	2r	8r	8r	2r	2r	2r
.	.	.	.	.	8E	8C	8C	.	.	.	8C	8C	.	.	.
.	.	.	16G	16G	.	.	.	.	.	.	.	.	.	.	.
.	.	.	8.e	8.e	8r	8r	8r	.	.	.	8r	8r	.	.	.
.	.	.	.	.	8E	8C	8C	.	.	.	8C	8C	.	.	.
.	.	.	16c	16c	.	.	.	.	.	.	.	.	.	.	.
=116	=116	=116	=116	=116	=116	=116	=116	=116	=116	=116	=116	=116	=116	=116	=116
2r	2r	2r	8.g	8.g	8r	8r	8r	2r	2r	2r	8r	8r	2r	2r	2r
.	.	.	.	.	8E	8C	8C	.	.	.	8C	8C	.	.	.
.	.	.	16e	16e	.	.	.	.	.	.	.	.	.	.	.
.	.	.	8.cc	8.cc	8r	8r	8r	.	.	.	8r	8r	.	.	.
.	.	.	.	.	8E	8C	8C	.	.	.	8C	8C	.	.	.
.	.	.	16b	16b	.	.	.	.	.	.	.	.	.	.	.
=117	=117	=117	=117	=117	=117	=117	=117	=117	=117	=117	=117	=117	=117	=117	=117
2r	2r	2r	16b	16b	8F	8F	8F	2r	2r	2r	8F	8F	2r	2r	2r
.	.	.	16a	16a	.	.	.	.	.	.	.	.	.	.	.
.	.	.	16a	16a	8F	8F	8F	.	.	.	8F	8F	.	.	.
.	.	.	16g	16g	.	.	.	.	.	.	.	.	.	.	.
.	.	.	16g	16g	8D	8D	8D	.	.	.	8D	8D	.	.	.
.	.	.	16f	16f	.	.	.	.	.	.	.	.	.	.	.
.	.	.	16f	16f	8D	8D	8D	.	.	.	8D	8D	.	.	.
.	.	.	16e	16e	.	.	.	.	.	.	.	.	.	.	.
=118	=118	=118	=118	=118	=118	=118	=118	=118	=118	=118	=118	=118	=118	=118	=118
2r	2r	2r	16e	16e	8B	8BB	8BB	2r	2r	2r	8BB	8BB	2r	2r	2r
.	.	.	16d	16d	.	.	.	.	.	.	.	.	.	.	.
.	.	.	16d	16d	8B	8BB	8BB	.	.	.	8BB	8BB	.	.	.
.	.	.	16c	16c	.	.	.	.	.	.	.	.	.	.	.
.	.	.	16c	16c	8G	4GG	4GG	.	.	.	4GG	4GG	.	.	.
.	.	.	16B	16B	.	.	.	.	.	.	.	.	.	.	.
.	.	.	16A	16A	8G	.	.	.	.	.	.	.	.	.	.
.	.	.	16G	16G	.	.	.	.	.	.	.	.	.	.	.
=119	=119	=119	=119	=119	=119	=119	=119	=119	=119	=119	=119	=119	=119	=119	=119
2r	2r	2r	8.c	8.c	8r	8r	8r	2r	2r	2r	8r	8r	2r	2r	2r
.	.	.	.	.	8E	8C	8C	.	.	.	8C	8C	.	.	.
.	.	.	16G	16G	.	.	.	.	.	.	.	.	.	.	.
.	.	.	8.e	8.e	8r	8r	8r	.	.	.	8r	8r	.	.	.
.	.	.	.	.	8E	8C	8C	.	.	.	8C	8C	.	.	.
.	.	.	16c	16c	.	.	.	.	.	.	.	.	.	.	.
=120	=120	=120	=120	=120	=120	=120	=120	=120	=120	=120	=120	=120	=120	=120	=120
2r	2r	2r	8.g	8.g	8r	8r	8r	2r	2r	2r	8r	8r	2r	2r	2r
.	.	.	.	.	8E	8C	8C	.	.	.	8C	8C	.	.	.
.	.	.	16e	16e	.	.	.	.	.	.	.	.	.	.	.
.	.	.	8.cc	8.cc	8r	8r	8r	.	.	.	8r	8r	.	.	.
.	.	.	.	.	8E	8C	8C	.	.	.	8C	8C	.	.	.
.	.	.	16g	16g	.	.	.	.	.	.	.	.	.	.	.
=121	=121	=121	=121	=121	=121	=121	=121	=121	=121	=121	=121	=121	=121	=121	=121
2r	2r	2r	8.ee	8.ee	8r	8r	8r	2r	2r	2r	8r	8r	2r	2r	2r
.	.	.	.	.	16c	8AA	8AA	.	.	.	8AA	8AA	.	.	.
.	.	.	16cc	16cc	16e	.	.	.	.	.	.	.	.	.	.
.	.	.	16b	16b	16d	8D	8D	.	.	.	8D	8D	.	.	.
.	.	.	16a	16a	16c	.	.	.	.	.	.	.	.	.	.
.	.	.	16g	16g	16B	8D	8D	.	.	.	8D	8D	.	.	.
.	.	.	16f#	16f#	16A	.	.	.	.	.	.	.	.	.	.
=122	=122	=122	=122	=122	=122	=122	=122	=122	=122	=122	=122	=122	=122	=122	=122
2r	2r	2r	8g	8g	8B	8GG	8GG	2r	2r	2r	8GG	8GG	2r	2r	2r
.	.	.	8g	8g	8B	8GG	8GG	.	.	.	8GG	8GG	.	.	.
.	.	.	8g	8g	8B	8GG	8GG	.	.	.	8GG	8GG	.	.	.
.	.	.	8r	8r	8r	8r	8r	.	.	.	8r	8r	.	.	.
=123	=123	=123	=123	=123	=123	=123	=123	=123	=123	=123	=123	=123	=123	=123	=123
2r	2r	2r	8.f	8.f	4d	8r	8r	2r	2r	2r	8r	8r	2r	2r	2r
.	.	.	.	.	.	8BB	8BB	.	.	.	8BB	8BB	.	.	.
.	.	.	16G	16G	.	.	.	.	.	.	.	.	.	.	.
.	.	.	8.e	8.e	4c	8r	8r	.	.	.	8r	8r	.	.	.
.	.	.	.	.	.	8C	8C	.	.	.	8C	8C	.	.	.
.	.	.	16G	16G	.	.	.	.	.	.	.	.	.	.	.
=124	=124	=124	=124	=124	=124	=124	=124	=124	=124	=124	=124	=124	=124	=124	=124
2r	2r	2r	8d	8d	8B	8GG	8GG	2r	2r	2r	8GG	8GG	2r	2r	2r
.	.	.	8d	8d	8B	8GG	8GG	.	.	.	8GG	8GG	.	.	.
.	.	.	16d	16d	8B	8GG	8GG	.	.	.	8GG	8GG	.	.	.
.	.	.	16e	16e	.	.	.	.	.	.	.	.	.	.	.
.	.	.	16f	16f	8r	8r	8r	.	.	.	8r	8r	.	.	.
.	.	.	16g	16g	.	.	.	.	.	.	.	.	.	.	.
=125	=125	=125	=125	=125	=125	=125	=125	=125	=125	=125	=125	=125	=125	=125	=125
2r	2r	2r	16g#	16g#	8F	[2GG	[2GG	2r	2r	2r	[2GG	[2GG	2r	2r	2r
.	.	.	16a	16a	.	.	.	.	.	.	.	.	.	.	.
.	.	.	16f#	16f#	8E	.	.	.	.	.	.	.	.	.	.
.	.	.	16g	16g	.	.	.	.	.	.	.	.	.	.	.
.	.	.	16e	16e	8D	.	.	.	.	.	.	.	.	.	.
.	.	.	16f	16f	.	.	.	.	.	.	.	.	.	.	.
.	.	.	16d#	16d#	8C	.	.	.	.	.	.	.	.	.	.
.	.	.	16e	16e	.	.	.	.	.	.	.	.	.	.	.
=126	=126	=126	=126	=126	=126	=126	=126	=126	=126	=126	=126	=126	=126	=126	=126
2r	2r	2r	8d	8d	4G	4GG]	4GG]	2r	2r	2r	4GG]	4GG]	2r	2r	2r
.	.	.	8d	8d	.	.	.	.	.	.	.	.	.	.	.
.	.	.	8d	8d	4r	4r	4r	.	.	.	4r	4r	.	.	.
.	.	.	8d#	8d#	.	.	.	.	.	.	.	.	.	.	.
=127	=127	=127	=127	=127	=127	=127	=127	=127	=127	=127	=127	=127	=127	=127	=127
2r	2r	2r	8.e	8.e	8r	8r	8r	2r	2r	2r	8r	8r	2r	2r	2r
.	.	.	.	.	8E	8C	8C	.	.	.	8C	8C	.	.	.
.	.	.	16c	16c	.	.	.	.	.	.	.	.	.	.	.
.	.	.	8.g	8.g	8r	8r	8r	.	.	.	8r	8r	.	.	.
.	.	.	.	.	8E	8C	8C	.	.	.	8C	8C	.	.	.
.	.	.	16e	16e	.	.	.	.	.	.	.	.	.	.	.
=128	=128	=128	=128	=128	=128	=128	=128	=128	=128	=128	=128	=128	=128	=128	=128
2r	2r	2r	16.cc	16.cc	8r	8r	8r	2r	2r	2r	8r	8r	2r	2r	2r
.	.	.	32g	32g	.	.	.	.	.	.	.	.	.	.	.
.	.	.	16.ee	16.ee	8E	8C	8C	.	.	.	8C	8C	.	.	.
.	.	.	32cc	32cc	.	.	.	.	.	.	.	.	.	.	.
.	.	.	16.gg	16.gg	8r	8r	8r	.	.	.	8r	8r	.	.	.
.	.	.	32ee	32ee	.	.	.	.	.	.	.	.	.	.	.
.	.	.	8ccc	8ccc	8E	8C	8C	.	.	.	8C	8C	.	.	.
=129	=129	=129	=129	=129	=129	=129	=129	=129	=129	=129	=129	=129	=129	=129	=129
2r	2r	2r	8r	8r	8r	8r	8r	2r	2r	2r	8r	8r	2r	2r	2r
.	.	.	8a	8a	8F	8F	8F	.	.	.	8F	8F	.	.	.
.	.	.	8r	8r	8r	8r	8r	.	.	.	8r	8r	.	.	.
.	.	.	8d	8d	8B	8G	8G	.	.	.	8G	8G	.	.	.
=130	=130	=130	=130	=130	=130	=130	=130	=130	=130	=130	=130	=130	=130	=130	=130
2r	2r	2r	4f	4f	4d	8C	8C	2r	2r	2r	8C	8C	2r	2r	2r
.	.	.	.	.	.	8CC	8CC	.	.	.	8CC	8CC	.	.	.
.	.	.	8e	8e	8c	8CC	8CC	.	.	.	8CC	8CC	.	.	.
.	.	.	8r	8r	8r	8r	8r	.	.	.	8r	8r	.	.	.
=131	=131	=131	=131	=131	=131	=131	=131	=131	=131	=131	=131	=131	=131	=131	=131
8fff	8g	8GG	16ddd	16ff	16g	8BB	8BB	8fff	8ff	8dd	16BB	16BB	8dd	8g	8dd
.	.	.	16ff	16dd	16g	.	.	.	.	.	16G	16G	.	.	.
8fff	8g	8GG	16ddd	16ff	16g	8BB	8BB	8fff	8ff	8dd	16BB	16BB	8dd	8g	8dd
.	.	.	16ff	16dd	16g	.	.	.	.	.	16G	16G	.	.	.
8eee	8cc	8C	16ccc	16ee	16g	8C	8C	8eee	8ee	8cc	16C	16C	8ee	8cc	8ee
.	.	.	16ee	16cc	16g	.	.	.	.	.	16G	16G	.	.	.
8eee	8cc	8C	16ccc	16ee	16g	8C	8C	8eee	8ee	8cc	16C	16C	8ee	8cc	8ee
.	.	.	16ee	16cc	16g	.	.	.	.	.	16G	16G	.	.	.
=132	=132	=132	=132	=132	=132	=132	=132	=132	=132	=132	=132	=132	=132	=132	=132
8ddd	8g	8GG	16bb	16gg	16g	4GG	4GG	8ddd	8dd	8b	8GG	8GG	8dd	8g	8dd
.	.	.	32g	32g	32g	.	.	.	.	.	.	.	.	.	.
.	.	.	32g	32g	32g	.	.	.	.	.	.	.	.	.	.
16gg	16g	16GG	16g	16g	16g	.	.	16gg	16gg	16g	16GG	16GG	16gg	16g	16gg
16gg	16g	16GG	16g	16g	16g	.	.	16gg	16gg	16g	16GG	16GG	16gg	16g	16gg
16gg	16g	16GG	16g	16g	16g	4r	4r	16gg	16gg	16g	16GG	16GG	16gg	16g	16gg
16gg	16g	16GG	16g	16g	16g	.	.	16gg	16gg	16g	16GG	16GG	16gg	16g	16gg
16gg	16g	16GG	16g	16g	16g	.	.	16gg	16gg	16g	16GG	16GG	16gg	16g	16gg
16gg	16g	16GG	16g	16g	16g	.	.	16gg	16gg	16g	16GG	16GG	16gg	16g	16gg
=133	=133	=133	=133	=133	=133	=133	=133	=133	=133	=133	=133	=133	=133	=133	=133
8fff	8dd	8GG	16ddd	16ff	16g	8BB	8BB	8fff	8ff	8dd	16BB	16BB	8ff	8dd	8ff
.	.	.	16ff	16dd	16g	.	.	.	.	.	16G	16G	.	.	.
8fff	8dd	8GG	16ddd	16ff	16g	8BB	8BB	8fff	8ff	8dd	16BB	16BB	8ff	8dd	8ff
.	.	.	16ff	16dd	16g	.	.	.	.	.	16G	16G	.	.	.
8eee	8cc	8C	16ccc	16ee	16g	8C	8C	8eee	8ee	8cc	16C	16C	8ee	8cc	8ee
.	.	.	16ee	16cc	16g	.	.	.	.	.	16G	16G	.	.	.
8eee	8cc	8C	16ccc	16ee	16g	8C	8C	8eee	8ee	8cc	16C	16C	8ee	8cc	8ee
.	.	.	16ee	16cc	16g	.	.	.	.	.	16G	16G	.	.	.
=134	=134	=134	=134	=134	=134	=134	=134	=134	=134	=134	=134	=134	=134	=134	=134
8ddd	8g	8GG	16bb	16gg	16g	4GG	4GG	8ddd	8dd	8b	8GG	8GG	8dd	8g	8dd
.	.	.	32g	32g	32g	.	.	.	.	.	.	.	.	.	.
.	.	.	32g	32g	32g	.	.	.	.	.	.	.	.	.	.
16gg	16g	16GG	16g	16g	16g	.	.	16gg	8dd	16b	8G	8G	16dd	16g	16dd
16gg	16g	16GG	16g	16g	16g	.	.	16gg	.	16b	.	.	16dd	16g	16dd
8gg	8g	16GG	16g	16g	16g	4r	4r	8gg	8dd	8b	16G	16G	8dd	8g	8dd
.	.	16GG	16f	16f	16f	.	.	.	.	.	16F	16F	.	.	.
8r	8r	16GG	16e	16e	16e	.	.	8r	8r	8r	16E	16E	8r	8r	8r
.	.	16GG	16d	16d	16d	.	.	.	.	.	16D	16D	.	.	.
=135	=135	=135	=135	=135	=135	=135	=135	=135	=135	=135	=135	=135	=135	=135	=135
8ccc	8e	8C	24c	8c	8c	8r	8r	8ccc	8cc	8e	8C	8C	8cc	8e	8cc
.	.	.	24e	.	.	.	.	.	.	.	.	.	.	.	.
.	.	.	24g	.	.	.	.	.	.	.	.	.	.	.	.
8ccc	8e	8C	24cc	8G 8e	8G 8C 8e	8c 8E 8CC 8GG	8C	8ccc	8cc	8e	8C	8C	8cc	8e	8cc
.	.	.	24b	.	.	.	.	.	.	.	.	.	.	.	.
.	.	.	24cc	.	.	.	.	.	.	.	.	.	.	.	.
8eee	8cc	8C	24e	8r	8r	8r	8r	8eee	8ee	8cc	8r	8r	8ee	8cc	8ee
.	.	.	24g	.	.	.	.	.	.	.	.	.	.	.	.
.	.	.	24cc	.	.	.	.	.	.	.	.	.	.	.	.
8eee	8cc	8C	24ee	8cc 8e 8G	8G 8e 8C	8c 8E 8GG 8CC	8C	8eee	8ee	8cc	8C	8C	8ee	8cc	8ee
.	.	.	24dd	.	.	.	.	.	.	.	.	.	.	.	.
.	.	.	24ee	.	.	.	.	.	.	.	.	.	.	.	.
=136	=136	=136	=136	=136	=136	=136	=136	=136	=136	=136	=136	=136	=136	=136	=136
8ggg	8ee	8C	24g	8r	8r	8r	8r	8ggg	8gg	8ee	8r	8r	8gg	8ee	8gg
.	.	.	24cc	.	.	.	.	.	.	.	.	.	.	.	.
.	.	.	24ee	.	.	.	.	.	.	.	.	.	.	.	.
8ggg	8ee	8C	24gg	8ee 8cc 8g	8e 8G 8C	8c 8E 8CC 8GG	8C	8ggg	8gg	8ee	8C	8C	8gg	8ee	8gg
.	.	.	24ff#	.	.	.	.	.	.	.	.	.	.	.	.
.	.	.	24gg	.	.	.	.	.	.	.	.	.	.	.	.
4eee	8cc	8C	24cc	8r	8r	8r	8r	4eee	4ccc	4gg	8r	8r	8ee	8cc	8ee
.	.	.	24ee	.	.	.	.	.	.	.	.	.	.	.	.
.	.	.	24gg	.	.	.	.	.	.	.	.	.	.	.	.
.	8cc	8C	24ccc	8e 8gg 8cc	8e 8G 8C	8c 8E 8GG 8CC	8C	.	.	.	8C	8C	8ee	8cc	8ee
.	.	.	24bb	.	.	.	.	.	.	.	.	.	.	.	.
.	.	.	24ccc	.	.	.	.	.	.	.	.	.	.	.	.
=137	=137	=137	=137	=137	=137	=137	=137	=137	=137	=137	=137	=137	=137	=137	=137
8fff	8dd	4r	24aa	24aa	8f	8F	8F	8fff	8aa	8aa	8F	8F	8dd	8dd	8dd
.	.	.	24gg	24gg	.	.	.	.	.	.	.	.	.	.	.
.	.	.	24ff	24ff	.	.	.	.	.	.	.	.	.	.	.
8fff	8dd	.	24ee	24ee	8f	8F	8F	8fff	8aa	8aa	8F	8F	8dd	8dd	8dd
.	.	.	24dd	24dd	.	.	.	.	.	.	.	.	.	.	.
.	.	.	24cc	24cc	.	.	.	.	.	.	.	.	.	.	.
8bb	8g	8GG	24b	24b	8g	8G	8G	8bb	8b	8dd	8G	8G	8dd	8g	8dd
.	.	.	24a	24a	.	.	.	.	.	.	.	.	.	.	.
.	.	.	24g	24g	.	.	.	.	.	.	.	.	.	.	.
8bb	8g	8GG	24f	24f	8g	8G	8G	8bb	8b	8dd	8G	8G	8dd	8g	8dd
.	.	.	24e	24e	.	.	.	.	.	.	.	.	.	.	.
.	.	.	24d	24d	.	.	.	.	.	.	.	.	.	.	.
=138	=138	=138	=138	=138	=138	=138	=138	=138	=138	=138	=138	=138	=138	=138	=138
4ccc	4e	4C	4c	24c	24c	4C	4C	4ccc	4cc	4cc	4C	4C	4cc	4e	4cc
.	.	.	.	24c	24c	.	.	.	.	.	.	.	.	.	.
.	.	.	.	24c	24c	.	.	.	.	.	.	.	.	.	.
.	.	.	.	24c	24c	.	.	.	.	.	.	.	.	.	.
.	.	.	.	24c	24c	.	.	.	.	.	.	.	.	.	.
.	.	.	.	24c	24c	.	.	.	.	.	.	.	.	.	.
4r	4r	4r	4r	24c	24c	4r	4r	4r	4r	4r	4r	4r	4r	4r	4r
.	.	.	.	24c	24c	.	.	.	.	.	.	.	.	.	.
.	.	.	.	24c	24c	.	.	.	.	.	.	.	.	.	.
.	.	.	.	24c	24c	.	.	.	.	.	.	.	.	.	.
.	.	.	.	24c	24c	.	.	.	.	.	.	.	.	.	.
.	.	.	.	24c	24c	.	.	.	.	.	.	.	.	.	.
=139	=139	=139	=139	=139	=139	=139	=139	=139	=139	=139	=139	=139	=139	=139	=139
8fff	8c	8C	8ff	24c	24c	8A	8A	8fff	8ff	8ff	8A	8A	8cc	8c	8cc
.	.	.	.	24c	24c	.	.	.	.	.	.	.	.	.	.
.	.	.	.	24c	24c	.	.	.	.	.	.	.	.	.	.
8fff	16c	16C	8ff	24c	24c	8A	8A	8fff	8ff	8ff	8A	8A	16cc	16c	16cc
.	.	.	.	24c	24c	.	.	.	.	.	.	.	.	.	.
.	16c	16C	.	.	.	.	.	.	.	.	.	.	16cc	16c	16cc
.	.	.	.	24c	24c	.	.	.	.	.	.	.	.	.	.
8eee	16c	16C	8ee	24c	24c	8G	8G	8eee	8ee	8ee	8G	8G	16cc	16c	16cc
.	.	.	.	24c	24c	.	.	.	.	.	.	.	.	.	.
.	16c	16C	.	.	.	.	.	.	.	.	.	.	16cc	16c	16cc
.	.	.	.	24c	24c	.	.	.	.	.	.	.	.	.	.
8r	16c	16C	8r	24c	24c	8r	8r	8r	8r	8r	8r	8r	16cc	16c	16cc
.	.	.	.	24c	24c	.	.	.	.	.	.	.	.	.	.
.	16c	16C	.	.	.	.	.	.	.	.	.	.	16cc	16c	16cc
.	.	.	.	24c	24c	.	.	.	.	.	.	.	.	.	.
=140	=140	=140	=140	=140	=140	=140	=140	=140	=140	=140	=140	=140	=140	=140	=140
8ddd	8c	8C	8dd	24c	24c	8F	8F	8ddd	8dd	8dd	8F	8F	8cc	8c	8cc
.	.	.	.	24c	24c	.	.	.	.	.	.	.	.	.	.
.	.	.	.	24c	24c	.	.	.	.	.	.	.	.	.	.
8ddd	8c	8C	8dd	24c	24c	8F	8F	8ddd	8dd	8dd	8F	8F	8cc	8c	8cc
.	.	.	.	24c	24c	.	.	.	.	.	.	.	.	.	.
.	.	.	.	24c	24c	.	.	.	.	.	.	.	.	.	.
8eee	8c	8C	8ee	24c	24c	8G	8G	8eee	8ee	8ee	8G	8G	8cc	8c	8cc
.	.	.	.	24c	24c	.	.	.	.	.	.	.	.	.	.
.	.	.	.	24c	24c	.	.	.	.	.	.	.	.	.	.
8r	8c	8C	8r	24c	24c	8r	8r	8r	8r	8r	8r	8r	8cc	8c	8cc
.	.	.	.	24c	24c	.	.	.	.	.	.	.	.	.	.
.	.	.	.	24c	24c	.	.	.	.	.	.	.	.	.	.
=141	=141	=141	=141	=141	=141	=141	=141	=141	=141	=141	=141	=141	=141	=141	=141
8fff	8c	8C	8ccc 8cc	24c	24c	8A	8A	8fff	8ff	8ff	8f	8f	8cc	8c	8cc
.	.	.	.	24c	24c	.	.	.	.	.	.	.	.	.	.
.	.	.	.	24c	24c	.	.	.	.	.	.	.	.	.	.
8fff	16c	16C	8ccc 8cc	24c	24c	8A	8A	8fff	8ff	8ff	8f	8f	16cc	16c	16cc
.	.	.	.	24c	24c	.	.	.	.	.	.	.	.	.	.
.	16c	16C	.	.	.	.	.	.	.	.	.	.	16cc	16c	16cc
.	.	.	.	24c	24c	.	.	.	.	.	.	.	.	.	.
8eee	16c	16C	8ccc 8cc	24c	24c	8G	8G	8eee	8ee	8ee	8e	8e	16cc	16c	16cc
.	.	.	.	24c	24c	.	.	.	.	.	.	.	.	.	.
.	16c	16C	.	.	.	.	.	.	.	.	.	.	16cc	16c	16cc
.	.	.	.	24c	24c	.	.	.	.	.	.	.	.	.	.
8r	16c	16C	8r	24c	24c	8r	8r	8r	8r	8r	8r	8r	16cc	16c	16cc
.	.	.	.	24c	24c	.	.	.	.	.	.	.	.	.	.
.	16c	16C	.	.	.	.	.	.	.	.	.	.	16cc	16c	16cc
.	.	.	.	24c	24c	.	.	.	.	.	.	.	.	.	.
=142	=142	=142	=142	=142	=142	=142	=142	=142	=142	=142	=142	=142	=142	=142	=142
8ddd	8c	8C	8ccc 8cc	24c	24c	8F	8F	8ddd	8dd	8dd	8d	8d	8cc	8c	8cc
.	.	.	.	24c	24c	.	.	.	.	.	.	.	.	.	.
.	.	.	.	24c	24c	.	.	.	.	.	.	.	.	.	.
8ddd	8c	8C	8ccc 8cc	24c	24c	8F	8F	8ddd	8dd	8dd	8d	8d	8cc	8c	8cc
.	.	.	.	24c	24c	.	.	.	.	.	.	.	.	.	.
.	.	.	.	24c	24c	.	.	.	.	.	.	.	.	.	.
4eee-	4c	4C	4ccc 4cc	4e-	4A	4F#	4F#	4eee-	4ee-	4ee-	4e-	4e-	4cc	4c	4cc
=143	=143	=143	=143	=143	=143	=143	=143	=143	=143	=143	=143	=143	=143	=143	=143
2r	2r	2r	8g	8e	4G	4GG	4GG	2r	2r	2r	2r	2r	2r	2r	2r
.	.	.	8g	8e	.	.	.	.	.	.	.	.	.	.	.
.	.	.	8e	8c	4r	4r	4r	.	.	.	.	.	.	.	.
.	.	.	8r	8r	.	.	.	.	.	.	.	.	.	.	.
=144	=144	=144	=144	=144	=144	=144	=144	=144	=144	=144	=144	=144	=144	=144	=144
2r	2r	2r	8f	8d	4G	4GG	4GG	2r	2r	2r	2r	2r	2r	2r	2r
.	.	.	8f	8d	.	.	.	.	.	.	.	.	.	.	.
.	.	.	8d	8B	4r	4r	4r	.	.	.	.	.	.	.	.
.	.	.	8r	8r	.	.	.	.	.	.	.	.	.	.	.
=145	=145	=145	=145	=145	=145	=145	=145	=145	=145	=145	=145	=145	=145	=145	=145
2r	2r	2r	[2B- 2e	2e 2G	2B-	4C	4C	2r	8cc	2r	8c	2r	[2C	[2CC	2r
.	.	.	.	.	.	.	.	.	8cc	.	8c	.	.	.	.
.	.	.	.	.	.	4r	4r	.	8ee	.	8e	.	.	.	.
.	.	.	.	.	.	.	.	.	8ee	.	8e	.	.	.	.
=146	=146	=146	=146	=146	=146	=146	=146	=146	=146	=146	=146	=146	=146	=146	=146
2r	2r	2r	2B- 2e]	2d-	2G	4C	4C	2r	8gg	2r	8g	2r	2C_	2CC_	2r
.	.	.	.	.	.	.	.	.	8gg	.	8g	.	.	.	.
.	.	.	.	.	.	4r	4r	.	4ee	.	4e	.	.	.	.
=147	=147	=147	=147	=147	=147	=147	=147	=147	=147	=147	=147	=147	=147	=147	=147
2r	2r	2r	2f 2A-	[2d 2B	2A-	4C	4C	2r	8ff	2r	8f	2r	2C_	2CC_	2r
.	.	.	.	.	.	.	.	.	8ff	.	8f	.	.	.	.
.	.	.	.	.	.	4r	4r	.	8dd	.	8d	.	.	.	.
.	.	.	.	.	.	.	.	.	8dd	.	8d	.	.	.	.
=148	=148	=148	=148	=148	=148	=148	=148	=148	=148	=148	=148	=148	=148	=148	=148
2r	2r	2r	2G 2f	2d 2B]	2B	4C	4C	2r	8b	2r	8B	2r	2C_	2CC_	2r
.	.	.	.	.	.	.	.	.	8b	.	8B	.	.	.	.
.	.	.	.	.	.	4r	4r	.	4g	.	4G	.	.	.	.
=149	=149	=149	=149	=149	=149	=149	=149	=149	=149	=149	=149	=149	=149	=149	=149
8r	2r	16C	[2B- 2e	2e 2G	2c	[2C	[2C	2r	8cc	2r	8c	2r	4C]	4CC]	2r
.	.	16C	.	.	.	.	.	.	.	.	.	.	.	.	.
8eee	.	16C	.	.	.	.	.	.	8cc	.	8c	.	.	.	.
.	.	16C	.	.	.	.	.	.	.	.	.	.	.	.	.
8r	.	16C	.	.	.	.	.	.	8ee	.	8e	.	4r	4r	.
.	.	16C	.	.	.	.	.	.	.	.	.	.	.	.	.
8ccc	.	16C	.	.	.	.	.	.	8ee	.	8e	.	.	.	.
.	.	16C	.	.	.	.	.	.	.	.	.	.	.	.	.
=150	=150	=150	=150	=150	=150	=150	=150	=150	=150	=150	=150	=150	=150	=150	=150
8r	2r	16C	2B- 2e]	2d-	2G	2C_	2C_	2r	8gg	2r	8g	2r	2r	2r	2r
.	.	16C	.	.	.	.	.	.	.	.	.	.	.	.	.
8bb-	.	16C	.	.	.	.	.	.	8gg	.	8g	.	.	.	.
.	.	16C	.	.	.	.	.	.	.	.	.	.	.	.	.
8r	.	16C	.	.	.	.	.	.	4ee	.	4e	.	.	.	.
.	.	16C	.	.	.	.	.	.	.	.	.	.	.	.	.
8gg	.	16C	.	.	.	.	.	.	.	.	.	.	.	.	.
.	.	16C	.	.	.	.	.	.	.	.	.	.	.	.	.
=151	=151	=151	=151	=151	=151	=151	=151	=151	=151	=151	=151	=151	=151	=151	=151
8r	2r	16C	2A- 2f	[2B 2d	2A-	2C_	2C_	2r	8ff	2r	8f	2r	2r	2r	2r
.	.	16C	.	.	.	.	.	.	.	.	.	.	.	.	.
8aa-	.	16C	.	.	.	.	.	.	8ff	.	8f	.	.	.	.
.	.	16C	.	.	.	.	.	.	.	.	.	.	.	.	.
8r	.	16C	.	.	.	.	.	.	8dd	.	8d	.	.	.	.
.	.	16C	.	.	.	.	.	.	.	.	.	.	.	.	.
8fff	.	16C	.	.	.	.	.	.	8dd	.	8d	.	.	.	.
.	.	16C	.	.	.	.	.	.	.	.	.	.	.	.	.
=152	=152	=152	=152	=152	=152	=152	=152	=152	=152	=152	=152	=152	=152	=152	=152
8r	2r	16C	2G 2f	2B 2d]	2B	2C]	2C]	2r	8b	2r	8B	2r	2r	2r	2r
.	.	16C	.	.	.	.	.	.	.	.	.	.	.	.	.
8ddd	.	16C	.	.	.	.	.	.	8b	.	8B	.	.	.	.
.	.	16C	.	.	.	.	.	.	.	.	.	.	.	.	.
8r	.	16C	.	.	.	.	.	.	4g	.	4G	.	.	.	.
.	.	16C	.	.	.	.	.	.	.	.	.	.	.	.	.
8bb	.	16C	.	.	.	.	.	.	.	.	.	.	.	.	.
.	.	16C	.	.	.	.	.	.	.	.	.	.	.	.	.
=153	=153	=153	=153	=153	=153	=153	=153	=153	=153	=153	=153	=153	=153	=153	=153
8ccc	2r	4C	8e	8c	4c	4C	4C	2r	8cc	8e	8e	8c	[2g	[2c	2r
8ccc	.	.	8e	8c	.	.	.	.	8cc	8e	8e	8c	.	.	.
8ccc	.	4r	8e	8c	4r	4r	4r	.	8cc	8e	8e	8c	.	.	.
8eee	.	.	8g	8e	.	.	.	.	8ee	8g	8g	8e	.	.	.
=154	=154	=154	=154	=154	=154	=154	=154	=154	=154	=154	=154	=154	=154	=154	=154
8ccc	2r	2r	8e	8c	4c	4C	4C	2r	8cc	8e	8e	8c	2g]	2c]	2r
8ccc	.	.	8e	8c	.	.	.	.	8cc	8e	8e	8c	.	.	.
8ccc	.	.	8e	8c	4r	4r	4r	.	8cc	8e	8e	8c	.	.	.
8eee	.	.	8g	8e	.	.	.	.	8ee	8g	8g	8e	.	.	.
=155	=155	=155	=155	=155	=155	=155	=155	=155	=155	=155	=155	=155	=155	=155	=155
8ccc	2r	2r	8e	8c	8G	8C	8C	2r	8cc	8e	8e	8c	8g	8c	2r
8r	.	.	8r	8r	8r	8r	8r	.	8r	8r	8r	8r	8r	8r	.
8ccc	.	.	8e	8c	8G	8C	8C	.	8cc	8e	8e	8c	8g	8c	.
8r	.	.	8r	8r	8r	8r	8r	.	8r	8r	8r	8r	8r	8r	.
=156	=156	=156	=156	=156	=156	=156	=156	=156	=156	=156	=156	=156	=156	=156	=156
4ccc	2r	2r	4e	4c	4G	4C	4C	2r	4cc	4e	4e	4c	4g	4c	2r
4r	.	.	4r	4r	4r	4r	4r	.	4r	4r	4r	4r	4r	4r	.
==	==	==	==	==	==	==	==	==	==	==	==	==	==	==	==
*-	*-	*-	*-	*-	*-	*-	*-	*-	*-	*-	*-	*-	*-	*-	*-
!!!RWG1: This file contains only pitch and duration data.
!!!RWG2: Transposing instruments are not transposed.
!!!RWG3: Spines may have incompatible meters.
!!!RWG4: Durations of rests and tied notes may be interpreted.
!!!RWG: Key is interpreted using the Humdrum key tool.
!!!OPT: The Surprise
!!!AFT: stage1
!!!END: 1997/04/15
!!format changes:
!!content changes:
!!public access: complete
!!!KEY: 4067551023
!!!EMD: Converted from MuseData to Humdrum Dec 16, 2000, by Andreas Kornstaedt using muse2kern.
